; generated by Slic3r 0.9.10b on 2014-02-09 at 00:35:00

; layer_height = 0.3
; perimeters = 3
; top_solid_layers = 3
; bottom_solid_layers = 3
; fill_density = 0.4
; perimeter_speed = 30
; infill_speed = 60
; travel_speed = 130
; nozzle_diameter = 0.5
; filament_diameter = 1.83
; extrusion_multiplier = 1
; perimeters extrusion width = 0.70mm
; infill extrusion width = 0.70mm
; solid infill extrusion width = 0.70mm
; top infill extrusion width = 0.70mm
; first layer extrusion width = 0.59mm

G21 ; set units to millimeters
M107
M190 S100 ; wait for bed temperature to be reached
M104 S230 ; set temperature
G28 ; home all axes
G1 Z5 F5000 ; lift nozzle
M109 S230 ; wait for temperature to be reached
G90 ; use absolute coordinates
G92 E0
M82 ; use absolute distances for extrusion
G1 F1800.000 E-1.00000
G92 E0
G1 Z0.150 F7800.000
G1 X56.300 Y61.238
G1 F1800.000 E1.00000
G1 X57.300 Y60.418 F540.000 E1.09888
G1 X58.430 Y59.818 E1.19671
G1 X59.670 Y59.438 E1.29588
G1 X60.950 Y59.318 E1.39418
G1 X99.050 Y59.318 E4.30742
G1 X100.330 Y59.438 E4.40572
G1 X101.570 Y59.818 E4.50489
G1 X102.700 Y60.418 E4.60271
G1 X103.700 Y61.238 E4.70160
G1 X104.520 Y62.238 E4.80048
G1 X105.120 Y63.368 E4.89831
G1 X105.500 Y64.608 E4.99747
G1 X105.620 Y65.888 E5.09578
G1 X105.620 Y94.108 E7.25356
G1 X105.500 Y95.388 E7.35186
G1 X105.120 Y96.627 E7.45103
G1 X104.520 Y97.757 E7.54886
G1 X103.700 Y98.757 E7.64774
G1 X102.700 Y99.578 E7.74662
G1 X101.570 Y100.178 E7.84445
G1 X100.330 Y100.558 E7.94362
G1 X99.050 Y100.678 E8.04192
G1 X60.950 Y100.678 E10.95516
G1 X59.670 Y100.558 E11.05346
G1 X58.430 Y100.178 E11.15263
G1 X57.300 Y99.578 E11.25046
G1 X56.300 Y98.757 E11.34934
G1 X55.480 Y97.757 E11.44822
G1 X54.880 Y96.627 E11.54605
G1 X54.500 Y95.388 E11.64522
G1 X54.380 Y94.108 E11.74352
G1 X54.380 Y65.888 E13.90130
G1 X54.500 Y64.608 E13.99960
G1 X54.880 Y63.368 E14.09877
G1 X55.480 Y62.238 E14.19660
G1 X56.245 Y61.304 E14.28889
G1 F1800.000 E13.28889
G92 E0
G1 X69.139 Y86.243 F7800.000
G1 F1800.000 E1.00000
G1 X69.784 Y85.976 F540.000 E1.05332
G1 X70.475 Y85.885 E1.10663
G1 X71.166 Y85.976 E1.15995
G1 X71.811 Y86.243 E1.21326
G1 X72.364 Y86.668 E1.26658
G1 X72.788 Y87.221 E1.31990
G1 X73.055 Y87.865 E1.37321
G1 X73.146 Y88.556 E1.42653
G1 X73.055 Y89.248 E1.47984
G1 X72.788 Y89.892 E1.53316
G1 X72.364 Y90.445 E1.58648
G1 X71.811 Y90.869 E1.63979
G1 X71.166 Y91.136 E1.69311
G1 X70.475 Y91.227 E1.74643
G1 X69.784 Y91.136 E1.79974
G1 X69.139 Y90.869 E1.85306
G1 X68.586 Y90.445 E1.90637
G1 X68.162 Y89.892 E1.95969
G1 X67.895 Y89.248 E2.01301
G1 X67.804 Y88.556 E2.06632
G1 X67.895 Y87.865 E2.11964
G1 X68.162 Y87.221 E2.17295
G1 X68.586 Y86.668 E2.22627
G1 X69.071 Y86.296 E2.27300
G1 X69.624 Y86.552 F7800.000
G1 F1800.000 E1.27300
G92 E0
G1 X77.420 Y87.865 F7800.000
G1 F1800.000 E1.00000
G1 X77.687 Y87.221 F540.000 E1.05332
G1 X78.111 Y86.668 E1.10663
G1 X78.664 Y86.243 E1.15995
G1 X79.309 Y85.976 E1.21326
G1 X79.929 Y85.895 E1.26107
G1 X80.000 Y85.885 E1.26658
G1 X80.691 Y85.976 E1.31990
G1 X81.336 Y86.243 E1.37321
G1 X81.889 Y86.668 E1.42653
G1 X82.313 Y87.221 E1.47984
G1 X82.580 Y87.865 E1.53316
G1 X82.589 Y87.936 E1.53867
G1 X82.671 Y88.556 E1.58648
G1 X82.580 Y89.248 E1.63979
G1 X82.313 Y89.892 E1.69311
G1 X81.889 Y90.445 E1.74643
G1 X81.336 Y90.869 E1.79974
G1 X80.691 Y91.136 E1.85306
G1 X80.071 Y91.218 E1.90086
G1 X80.000 Y91.227 E1.90637
G1 X79.309 Y91.136 E1.95969
G1 X78.664 Y90.869 E2.01301
G1 X78.168 Y90.489 E2.06081
G1 X78.111 Y90.445 E2.06632
G1 X77.687 Y89.892 E2.11964
G1 X77.420 Y89.248 E2.17295
G1 X77.329 Y88.556 E2.22627
G1 X77.409 Y87.950 E2.27300
G1 X77.981 Y87.741 F7800.000
G1 F1800.000 E1.27300
G92 E0
G1 X67.632 Y86.024 F7800.000
G1 F1800.000 E1.00000
G1 X67.158 Y86.641 F540.000 E1.05948
G1 X66.775 Y87.565 E1.13593
G1 X66.645 Y88.556 E1.21239
G1 X66.775 Y89.548 E1.28884
G1 X67.158 Y90.471 E1.36529
G1 X67.632 Y91.088 E1.42477
G1 X62.387 Y91.088 E1.82582
G1 X62.387 Y86.024 E2.21306
G1 X67.545 Y86.024 E2.60752
G1 X68.176 Y86.258 F7800.000
G1 X67.660 Y86.931 F540.000 E2.67240
G1 X67.335 Y87.715 E2.73729
G1 X67.224 Y88.556 E2.80217
G1 X67.335 Y89.398 E2.86706
G1 X67.660 Y90.182 E2.93194
G1 X68.176 Y90.855 E2.99682
G1 X69.048 Y91.524 E3.08086
G1 X69.001 Y91.663 E3.09211
G1 X63.263 Y91.663 E3.53086
G1 X63.263 Y93.251 E3.65224
G1 X61.812 Y93.251 E3.76320
G1 X61.812 Y83.862 E4.48109
G1 X63.263 Y83.862 E4.59205
G1 X63.263 Y85.449 E4.71343
G1 X69.001 Y85.449 E5.15218
G1 X69.048 Y85.589 E5.16342
G1 X68.245 Y86.205 E5.24087
G1 X73.318 Y86.024 F7800.000
G1 X77.156 Y86.024 F540.000 E5.53434
G1 X76.683 Y86.641 E5.59381
G1 X76.300 Y87.565 E5.67027
G1 X76.170 Y88.556 E5.74672
G1 X76.300 Y89.548 E5.82317
G1 X76.683 Y90.471 E5.89963
G1 X77.157 Y91.088 E5.95911
G1 X73.318 Y91.088 E6.25257
G1 X73.792 Y90.471 E6.31205
G1 X74.175 Y89.548 E6.38851
G1 X74.305 Y88.556 E6.46496
G1 X74.175 Y87.565 E6.54141
G1 X73.792 Y86.641 E6.61787
G1 X73.371 Y86.092 E6.67075
G1 X72.863 Y86.375 F7800.000
G1 X72.774 Y86.258 F540.000 E6.68205
G1 X71.902 Y85.589 E6.76609
G1 X71.949 Y85.449 E6.77733
G1 X78.526 Y85.449 E7.28025
G1 X78.573 Y85.589 E7.29149
G1 X77.701 Y86.258 E7.37553
G1 X77.185 Y86.931 E7.44041
G1 X76.860 Y87.715 E7.50530
G1 X76.749 Y88.556 E7.57018
G1 X76.860 Y89.398 E7.63507
G1 X77.185 Y90.182 E7.69995
G1 X77.701 Y90.855 E7.76484
G1 X78.573 Y91.524 E7.84888
G1 X78.526 Y91.663 E7.86012
G1 X71.949 Y91.663 E8.36304
G1 X71.902 Y91.524 E8.37428
G1 X72.774 Y90.855 E8.45832
G1 X73.290 Y90.182 E8.52320
G1 X73.615 Y89.398 E8.58809
G1 X73.726 Y88.556 E8.65297
G1 X73.615 Y87.715 E8.71786
G1 X73.290 Y86.931 E8.78274
G1 X72.916 Y86.443 E8.82974
G1 X82.843 Y86.024 F7800.000
G1 X97.613 Y86.024 F540.000 E9.95910
G1 X97.613 Y91.088 E10.34634
G1 X82.843 Y91.088 E11.47570
G1 X83.317 Y90.471 E11.53518
G1 X83.700 Y89.548 E11.61163
G1 X83.830 Y88.556 E11.68808
G1 X83.700 Y87.565 E11.76454
G1 X83.317 Y86.641 E11.84099
G1 X82.896 Y86.092 E11.89388
G1 X82.388 Y86.375 F7800.000
G1 X82.299 Y86.258 F540.000 E11.90517
G1 X81.427 Y85.589 E11.98921
G1 X81.474 Y85.449 E12.00045
G1 X96.737 Y85.449 E13.16751
G1 X96.737 Y83.862 E13.28890
G1 X98.188 Y83.862 E13.39986
G1 X98.188 Y93.251 E14.11774
G1 X96.737 Y93.251 E14.22870
G1 X96.737 Y91.663 E14.35009
G1 X81.474 Y91.663 E15.51715
G1 X81.427 Y91.524 E15.52839
G1 X82.299 Y90.855 E15.61243
G1 X82.815 Y90.182 E15.67731
G1 X83.140 Y89.398 E15.74220
G1 X83.251 Y88.556 E15.80708
G1 X83.140 Y87.715 E15.87197
G1 X82.815 Y86.931 E15.93685
G1 X82.441 Y86.443 E15.98385
G1 X96.162 Y84.875 F7800.000
G1 X96.162 Y83.287 F378.000 E16.10524
G1 X98.763 Y83.287 E16.30407
G1 X98.763 Y93.825 E17.10983
G1 X96.162 Y93.825 E17.30866
G1 X96.162 Y92.238 E17.43005
G1 X63.838 Y92.238 E19.90168
G1 X63.838 Y93.825 E20.02307
G1 X61.237 Y93.825 E20.22190
G1 X61.237 Y83.287 E21.02766
G1 X63.838 Y83.287 E21.22649
G1 X63.838 Y84.875 E21.34788
G1 X96.076 Y84.875 E23.81292
G1 X96.737 Y84.875 F7800.000
G1 X97.197 Y86.654
G1 X96.984 Y86.441 F1080.000 E23.83617
G1 X96.165 Y86.441 E23.89925
G1 X97.197 Y87.473 E24.01171
G1 X97.197 Y88.291 E24.07479
G1 X95.346 Y86.441 E24.27647
G1 X94.527 Y86.441 E24.33955
G1 X97.197 Y89.110 E24.63043
G1 X97.197 Y89.929 E24.69351
G1 X93.708 Y86.441 E25.07360
G1 X92.890 Y86.441 E25.13669
G1 X97.121 Y90.672 E25.59773
G1 X96.302 Y90.672 E25.66081
G1 X92.071 Y86.441 E26.12185
G1 X91.252 Y86.441 E26.18494
G1 X95.484 Y90.672 E26.64598
G1 X94.665 Y90.672 E26.70906
G1 X90.433 Y86.441 E27.17010
G1 X89.615 Y86.441 E27.23319
G1 X93.846 Y90.672 E27.69423
G1 X93.027 Y90.672 E27.75731
G1 X88.796 Y86.441 E28.21835
G1 X87.977 Y86.441 E28.28143
G1 X92.208 Y90.672 E28.74248
G1 X91.390 Y90.672 E28.80556
G1 X87.158 Y86.441 E29.26660
G1 X86.339 Y86.441 E29.32968
G1 X90.571 Y90.672 E29.79073
G1 X89.752 Y90.672 E29.85381
G1 X85.521 Y86.441 E30.31485
G1 X84.702 Y86.441 E30.37793
G1 X88.933 Y90.672 E30.83898
G1 X88.114 Y90.672 E30.90206
G1 X83.883 Y86.441 E31.36310
G1 X84.109 Y87.486 E31.44548
G1 X87.296 Y90.672 E31.79266
G1 X86.477 Y90.672 E31.85574
G1 X84.233 Y88.429 E32.10018
G1 X84.168 Y89.182 E32.15843
G1 X85.658 Y90.672 E32.32080
G1 X84.839 Y90.672 E32.38388
G1 X84.023 Y89.856 E32.47284
G1 X83.783 Y90.435 E32.52112
G1 X84.021 Y90.672 E32.54699
G1 X79.071 Y91.831 F7800.000
G1 X78.942 Y91.702 F360.000 E32.55415
G1 X79.178 Y91.522 E32.56579
G1 X79.488 Y91.831 E32.58293
G1 X79.666 Y91.593 E32.59459
G1 X79.904 Y91.831 E32.60779
G1 X80.112 Y91.622 E32.61933
G1 X80.321 Y91.831 E32.63092
G1 X80.480 Y91.574 E32.64277
G1 X80.738 Y91.831 E32.65704
G1 X80.838 Y91.515 E32.67004
G1 X81.075 Y91.752 E32.68314
G1 X76.078 Y90.098 F7800.000
G1 X74.703 Y88.724 F1080.000 E32.83177
G1 X74.608 Y89.447 F7800.000
G1 X75.833 Y90.672 F1080.000 E32.96420
G1 X75.014 Y90.672 F7800.000
G1 X74.410 Y90.068 F1080.000 E33.02951
G1 X74.170 Y90.647 F7800.000
G1 X74.195 Y90.672 F1080.000 E33.03221
G1 X75.810 Y89.011 F7800.000
G1 X74.630 Y87.832 F1080.000 E33.15980
G1 X75.799 Y88.182 F7800.000
G1 X74.232 Y86.615 F1080.000 E33.32925
G1 X74.876 Y86.441 F7800.000
G1 X75.894 Y87.458 F1080.000 E33.43933
G1 X76.134 Y86.879 F7800.000
G1 X75.695 Y86.441 F1080.000 E33.48675
G1 F1800.000 E32.48675
G92 E0
G1 X69.486 Y91.831 F7800.000
G1 F1800.000 E1.00000
G1 X69.402 Y91.747 F360.000 E1.00467
G1 X69.550 Y91.479 E1.01669
G1 X69.903 Y91.831 E1.03622
G1 X70.072 Y91.584 E1.04798
G1 X70.319 Y91.831 E1.06171
G1 X70.534 Y91.629 E1.07327
G1 X70.736 Y91.831 E1.08449
G1 X70.902 Y91.581 E1.09628
G1 X71.153 Y91.831 E1.11018
G1 X71.270 Y91.532 E1.12279
G1 X71.570 Y91.831 E1.13938
G1 X66.765 Y90.611 F7800.000
G1 X62.803 Y86.649 F1080.000 E1.56782
G1 X63.413 Y86.441 F7800.000
G1 X66.330 Y89.357 F1080.000 E1.88325
G1 X66.239 Y88.448 F7800.000
G1 X64.232 Y86.441 F1080.000 E2.10027
G1 X65.051 Y86.441 F7800.000
G1 X66.334 Y87.724 F1080.000 E2.23906
G1 X66.521 Y87.092 F7800.000
G1 X65.870 Y86.441 F1080.000 E2.30946
G1 X66.688 Y86.441 F7800.000
G1 X66.760 Y86.513 F1080.000 E2.31725
G1 X62.803 Y87.468 F7800.000
G1 X66.007 Y90.672 F1080.000 E2.66373
G1 X65.188 Y90.672 F7800.000
G1 X62.803 Y88.287 F1080.000 E2.92167
G1 X62.803 Y89.105 F7800.000
G1 X64.370 Y90.672 F1080.000 E3.09108
G1 X63.551 Y90.672 F7800.000
G1 X62.803 Y89.924 F1080.000 E3.17194
G1 X62.678 Y92.256 F7800.000
G1 X62.397 Y91.974 F360.000 E3.20264
G1 X62.412 Y85.439 F7800.000
G1 X62.397 Y85.424 F360.000 E3.20431
G1 X62.678 Y84.887 F7800.000
G1 X62.397 Y84.605 F360.000 E3.23478
G1 X69.542 Y85.637 F7800.000
G1 X69.469 Y85.563 F360.000 E3.23884
G1 X69.603 Y85.281 E3.25108
G1 X69.877 Y85.554 E3.26621
G1 X70.020 Y85.281 E3.27830
G1 X70.245 Y85.506 E3.29074
G1 X70.437 Y85.281 E3.30232
G1 X70.655 Y85.499 E3.31440
G1 X70.854 Y85.281 E3.32595
G1 X71.135 Y85.562 E3.34153
G1 X71.270 Y85.281 E3.35375
G1 X71.499 Y85.510 E3.36643
G1 X79.110 Y85.619 F7800.000
G1 X78.963 Y85.472 F360.000 E3.37457
G1 X79.189 Y85.281 E3.38615
G1 X79.455 Y85.547 E3.40089
G1 X79.605 Y85.281 E3.41287
G1 X79.823 Y85.499 E3.42492
G1 X80.022 Y85.281 E3.43647
G1 X80.249 Y85.508 E3.44906
G1 X80.439 Y85.281 E3.46064
G1 X80.729 Y85.572 E3.47673
G1 X80.856 Y85.281 E3.48913
G1 X81.040 Y85.465 E3.49932
G1 X97.603 Y85.423 F7800.000
G1 X97.322 Y85.141 F360.000 E3.52979
G1 X97.603 Y84.604 F7800.000
G1 X97.446 Y84.447 F360.000 E3.54680
G1 X97.603 Y91.973 F7800.000
G1 X97.322 Y91.691 F360.000 E3.57726
G1 X97.477 Y92.666 F7800.000
G1 X97.322 Y92.510 F360.000 E3.59411
G1 F1800.000 E2.59411
G92 E0
G1 X72.364 Y73.332 F7800.000
G1 F1800.000 E1.00000
G1 X71.811 Y73.757 F540.000 E1.05332
G1 X71.166 Y74.024 E1.10663
G1 X70.475 Y74.115 E1.15995
G1 X69.784 Y74.024 E1.21326
G1 X69.206 Y73.785 E1.26107
G1 X69.139 Y73.757 E1.26658
G1 X68.586 Y73.332 E1.31990
G1 X68.162 Y72.779 E1.37321
G1 X68.134 Y72.713 E1.37872
G1 X67.895 Y72.135 E1.42653
G1 X67.804 Y71.444 E1.47985
G1 X67.895 Y70.752 E1.53316
G1 X67.923 Y70.686 E1.53867
G1 X68.162 Y70.108 E1.58648
G1 X68.586 Y69.555 E1.63979
G1 X69.139 Y69.131 E1.69311
G1 X69.784 Y68.864 E1.74643
G1 X70.475 Y68.773 E1.79974
G1 X71.166 Y68.864 E1.85306
G1 X71.744 Y69.103 E1.90086
G1 X71.811 Y69.131 E1.90637
G1 X72.364 Y69.555 E1.95969
G1 X72.788 Y70.108 E2.01301
G1 X72.816 Y70.175 E2.01852
G1 X73.055 Y70.752 E2.06632
G1 X73.146 Y71.444 E2.11964
G1 X73.055 Y72.135 E2.17295
G1 X72.788 Y72.779 E2.22627
G1 X72.416 Y73.264 E2.27300
G1 X71.816 Y73.160 F7800.000
G1 F1800.000 E1.27300
G92 E0
G1 X77.420 Y72.135 F7800.000
G1 F1800.000 E1.00000
G1 X77.329 Y71.444 F540.000 E1.05332
G1 X77.420 Y70.752 E1.10663
G1 X77.687 Y70.108 E1.15995
G1 X78.111 Y69.555 E1.21326
G1 X78.607 Y69.174 E1.26107
G1 X78.664 Y69.131 E1.26658
G1 X79.309 Y68.864 E1.31990
G1 X80.000 Y68.773 E1.37321
G1 X80.691 Y68.864 E1.42653
G1 X81.336 Y69.131 E1.47985
G1 X81.889 Y69.555 E1.53316
G1 X81.933 Y69.612 E1.53867
G1 X82.313 Y70.108 E1.58648
G1 X82.580 Y70.752 E1.63979
G1 X82.671 Y71.444 E1.69311
G1 X82.580 Y72.135 E1.74643
G1 X82.313 Y72.779 E1.79974
G1 X81.889 Y73.332 E1.85306
G1 X81.393 Y73.713 E1.90086
G1 X81.336 Y73.757 E1.90637
G1 X80.691 Y74.024 E1.95969
G1 X80.000 Y74.115 E2.01301
G1 X79.309 Y74.024 E2.06632
G1 X78.664 Y73.757 E2.11964
G1 X78.111 Y73.332 E2.17295
G1 X77.687 Y72.779 E2.22627
G1 X77.453 Y72.215 E2.27300
G1 X77.844 Y71.747 F7800.000
G1 F1800.000 E1.27300
G92 E0
G1 X67.632 Y73.976 F7800.000
G1 F1800.000 E1.00000
G1 X62.387 Y73.976 F540.000 E1.40105
G1 X62.387 Y68.912 E1.78829
G1 X67.632 Y68.912 E2.18934
G1 X67.158 Y69.529 E2.24881
G1 X66.775 Y70.452 E2.32527
G1 X66.645 Y71.444 E2.40172
G1 X66.775 Y72.435 E2.47817
G1 X67.158 Y73.359 E2.55463
G1 X67.579 Y73.908 E2.60752
G1 X68.087 Y73.625 F7800.000
G1 X68.176 Y73.742 F540.000 E2.61881
G1 X69.048 Y74.411 E2.70285
G1 X69.001 Y74.551 E2.71409
G1 X63.263 Y74.551 E3.15284
G1 X63.263 Y76.138 E3.27423
G1 X61.812 Y76.138 E3.38519
G1 X61.812 Y66.749 E4.10307
G1 X63.263 Y66.749 E4.21403
G1 X63.263 Y68.337 E4.33542
G1 X69.001 Y68.337 E4.77417
G1 X69.048 Y68.476 E4.78541
G1 X68.176 Y69.145 E4.86945
G1 X67.660 Y69.818 E4.93433
G1 X67.335 Y70.602 E4.99922
G1 X67.224 Y71.444 E5.06410
G1 X67.335 Y72.285 E5.12899
G1 X67.660 Y73.069 E5.19387
G1 X68.034 Y73.557 E5.24087
G1 F1800.000 E4.24087
G92 E0
G1 X73.318 Y73.976 F7800.000
G1 F1800.000 E1.00000
G1 X73.792 Y73.359 F540.000 E1.05948
G1 X74.175 Y72.435 E1.13593
G1 X74.305 Y71.444 E1.21239
G1 X74.175 Y70.452 E1.28884
G1 X73.792 Y69.529 E1.36529
G1 X73.318 Y68.912 E1.42477
G1 X77.156 Y68.912 E1.71824
G1 X76.683 Y69.529 E1.77772
G1 X76.300 Y70.452 E1.85417
G1 X76.170 Y71.444 E1.93062
G1 X76.300 Y72.435 E2.00708
G1 X76.683 Y73.359 E2.08353
G1 X77.157 Y73.976 E2.14301
G1 X73.405 Y73.976 E2.42988
G1 X72.774 Y73.742 F7800.000
G1 X73.290 Y73.069 F540.000 E2.49477
G1 X73.615 Y72.285 E2.55965
G1 X73.726 Y71.444 E2.62454
G1 X73.615 Y70.602 E2.68942
G1 X73.290 Y69.818 E2.75431
G1 X72.774 Y69.145 E2.81919
G1 X71.902 Y68.476 E2.90323
G1 X71.949 Y68.337 E2.91447
G1 X78.526 Y68.337 E3.41739
G1 X78.573 Y68.476 E3.42864
G1 X77.701 Y69.145 E3.51267
G1 X77.185 Y69.818 E3.57756
G1 X76.860 Y70.602 E3.64244
G1 X76.749 Y71.444 E3.70733
G1 X76.860 Y72.285 E3.77221
G1 X77.185 Y73.069 E3.83710
G1 X77.701 Y73.742 E3.90198
G1 X78.573 Y74.411 E3.98602
G1 X78.526 Y74.551 E3.99726
G1 X71.949 Y74.551 E4.50018
G1 X71.902 Y74.411 E4.51143
G1 X72.705 Y73.795 E4.58887
G1 X82.843 Y73.976 F7800.000
G1 X83.317 Y73.359 F540.000 E4.64835
G1 X83.700 Y72.435 E4.72480
G1 X83.830 Y71.444 E4.80126
G1 X83.700 Y70.452 E4.87772
G1 X83.317 Y69.529 E4.95416
G1 X82.843 Y68.912 E5.01364
G1 X97.613 Y68.912 E6.14300
G1 X97.613 Y73.976 E6.53024
G1 X82.930 Y73.976 E7.65301
G1 X82.299 Y73.742 F7800.000
G1 X82.815 Y73.069 F540.000 E7.71789
