; generated by Slic3r 0.9.10b on 2014-02-13 at 20:28:22

; layer_height = 0.3
; perimeters = 3
; top_solid_layers = 3
; bottom_solid_layers = 3
; fill_density = 0.4
; perimeter_speed = 30
; infill_speed = 60
; travel_speed = 130
; nozzle_diameter = 0.5
; filament_diameter = 1.83
; extrusion_multiplier = 1
; perimeters extrusion width = 0.70mm
; infill extrusion width = 0.70mm
; solid infill extrusion width = 0.70mm
; top infill extrusion width = 0.70mm
; first layer extrusion width = 0.59mm

G21 ; set units to millimeters
M107
M190 S100 ; wait for bed temperature to be reached
M104 S230 ; set temperature
G28 ; home all axes
G1 Z5 F5000 ; lift nozzle
M109 S230 ; wait for temperature to be reached
G90 ; use absolute coordinates
G92 E0
M82 ; use absolute distances for extrusion
G1 F1800.000 E-1.00000
G92 E0
G1 Z0.150 F7800.000
G1 X40.425 Y43.600
G1 F1800.000 E1.00000
G1 X41.425 Y42.780 F540.000 E1.09888
G1 X42.555 Y42.180 E1.19671
G1 X43.795 Y41.800 E1.29588
G1 X45.075 Y41.680 E1.39418
G1 X114.925 Y41.680 E6.73512
G1 X116.205 Y41.800 E6.83342
G1 X117.445 Y42.180 E6.93259
G1 X118.575 Y42.780 E7.03041
G1 X119.575 Y43.600 E7.12930
G1 X120.395 Y44.600 E7.22818
G1 X120.995 Y45.730 E7.32601
G1 X121.375 Y46.970 E7.42517
G1 X121.495 Y48.250 E7.52348
G1 X121.495 Y111.750 E12.37888
G1 X121.375 Y113.030 E12.47718
G1 X120.995 Y114.270 E12.57634
G1 X120.395 Y115.400 E12.67417
G1 X119.575 Y116.400 E12.77306
G1 X118.575 Y117.220 E12.87194
G1 X117.445 Y117.820 E12.96977
G1 X116.205 Y118.200 E13.06893
G1 X114.925 Y118.320 E13.16723
G1 X45.075 Y118.320 E18.50817
G1 X43.795 Y118.200 E18.60648
G1 X42.555 Y117.820 E18.70564
G1 X41.425 Y117.220 E18.80347
G1 X40.425 Y116.400 E18.90235
G1 X39.605 Y115.400 E19.00124
G1 X39.005 Y114.270 E19.09906
G1 X38.625 Y113.030 E19.19823
G1 X38.505 Y111.750 E19.29653
G1 X38.505 Y48.250 E24.15193
G1 X38.625 Y46.970 E24.25023
G1 X39.005 Y45.730 E24.34940
G1 X39.605 Y44.600 E24.44723
G1 X40.370 Y43.667 E24.53952
G1 F1800.000 E23.53952
G92 E0
G1 X53.609 Y97.732 F7800.000
G1 F1800.000 E1.00000
G1 X54.600 Y97.601 F540.000 E1.07645
G1 X55.591 Y97.732 E1.15291
G1 X56.515 Y98.114 E1.22936
G1 X57.308 Y98.723 E1.30581
G1 X57.465 Y98.927 E1.32551
G1 X57.917 Y99.516 E1.38227
G1 X58.300 Y100.440 E1.45872
G1 X58.430 Y101.431 E1.53517
G1 X58.300 Y102.423 E1.61163
G1 X57.917 Y103.346 E1.68808
G1 X57.308 Y104.140 E1.76454
G1 X56.719 Y104.591 E1.82129
G1 X56.515 Y104.748 E1.84099
G1 X55.591 Y105.131 E1.91744
G1 X54.600 Y105.261 E1.99390
G1 X53.609 Y105.131 E2.07035
G1 X52.685 Y104.748 E2.14680
G1 X51.892 Y104.140 E2.22326
G1 X51.735 Y103.935 E2.24296
G1 X51.283 Y103.346 E2.29971
G1 X50.900 Y102.423 E2.37616
G1 X50.770 Y101.431 E2.45262
G1 X50.900 Y100.440 E2.52907
G1 X51.283 Y99.516 E2.60553
G1 X51.892 Y98.723 E2.68198
G1 X52.685 Y98.114 E2.75843
G1 X53.529 Y97.765 E2.82830
G1 X53.759 Y98.291 F7800.000
G1 X54.600 Y98.181 F540.000 E2.89318
G1 X55.441 Y98.291 E2.95807
G1 X56.225 Y98.616 E3.02295
G1 X56.899 Y99.133 E3.08783
G1 X57.009 Y99.277 E3.10175
G1 X57.415 Y99.806 E3.15272
G1 X57.740 Y100.590 E3.21761
G1 X57.851 Y101.431 E3.28249
G1 X57.740 Y102.273 E3.34738
G1 X57.415 Y103.057 E3.41226
G1 X56.899 Y103.730 E3.47714
G1 X56.370 Y104.136 E3.52811
G1 X56.225 Y104.246 E3.54203
G1 X55.441 Y104.571 E3.60691
G1 X54.600 Y104.682 E3.67180
G1 X53.759 Y104.571 E3.73668
G1 X52.975 Y104.246 E3.80157
G1 X52.301 Y103.730 E3.86645
G1 X52.191 Y103.585 E3.88037
G1 X51.785 Y103.057 E3.93134
G1 X51.460 Y102.273 E3.99622
G1 X51.349 Y101.431 E4.06111
G1 X51.460 Y100.590 E4.12599
G1 X51.785 Y99.806 E4.19088
G1 X52.301 Y99.133 E4.25576
G1 X52.975 Y98.616 E4.32065
G1 X53.679 Y98.324 E4.37894
G1 X53.909 Y98.851 F7800.000
G1 X54.600 Y98.760 F540.000 E4.43226
G1 X55.291 Y98.851 E4.48557
G1 X55.936 Y99.118 E4.53889
G1 X56.489 Y99.543 E4.59221
G1 X56.553 Y99.627 E4.60034
G1 X56.913 Y100.096 E4.64552
G1 X57.180 Y100.740 E4.69884
G1 X57.271 Y101.431 E4.75215
G1 X57.180 Y102.123 E4.80547
G1 X56.913 Y102.767 E4.85879
G1 X56.489 Y103.320 E4.91210
G1 X55.936 Y103.744 E4.96542
G1 X55.291 Y104.011 E5.01874
G1 X54.600 Y104.102 E5.07205
G1 X53.909 Y104.011 E5.12537
G1 X53.264 Y103.744 E5.17868
G1 X52.711 Y103.320 E5.23200
G1 X52.647 Y103.236 E5.24013
G1 X52.287 Y102.767 E5.28532
G1 X52.020 Y102.123 E5.33863
G1 X51.929 Y101.431 E5.39195
G1 X52.020 Y100.740 E5.44526
G1 X52.287 Y100.096 E5.49858
G1 X52.711 Y99.543 E5.55190
G1 X53.264 Y99.118 E5.60521
G1 X53.829 Y98.884 E5.65194
G1 X54.297 Y99.275 F7800.000
G1 F1800.000 E4.65194
G92 E0
G1 X54.600 Y62.399 F7800.000
G1 F1800.000 E1.00000
G1 X53.609 Y62.268 F540.000 E1.07645
G1 X52.923 Y61.984 E1.13321
G1 X52.685 Y61.886 E1.15291
G1 X51.892 Y61.277 E1.22936
G1 X51.283 Y60.484 E1.30581
G1 X50.900 Y59.560 E1.38227
G1 X50.770 Y58.569 E1.45872
G1 X50.900 Y57.577 E1.53517
G1 X51.283 Y56.654 E1.61163
G1 X51.892 Y55.860 E1.68808
G1 X52.685 Y55.252 E1.76454
G1 X53.609 Y54.869 E1.84099
G1 X54.600 Y54.739 E1.91744
G1 X55.591 Y54.869 E1.99390
G1 X56.277 Y55.153 E2.05065
G1 X56.515 Y55.252 E2.07035
G1 X57.308 Y55.860 E2.14680
G1 X57.917 Y56.654 E2.22326
G1 X58.016 Y56.892 E2.24296
G1 X58.300 Y57.577 E2.29971
G1 X58.430 Y58.569 E2.37616
G1 X58.300 Y59.560 E2.45262
G1 X57.917 Y60.484 E2.52907
G1 X57.308 Y61.277 E2.60552
G1 X56.515 Y61.886 E2.68198
G1 X55.591 Y62.268 E2.75843
G1 X54.685 Y62.388 E2.82830
G1 X54.600 Y61.819 F7800.000
G1 X53.759 Y61.709 F540.000 E2.89318
G1 X53.143 Y61.454 E2.94415
G1 X52.975 Y61.384 E2.95806
G1 X52.301 Y60.867 E3.02295
G1 X51.785 Y60.194 E3.08783
G1 X51.460 Y59.410 E3.15272
G1 X51.349 Y58.569 E3.21760
G1 X51.460 Y57.727 E3.28249
G1 X51.785 Y56.943 E3.34737
G1 X52.301 Y56.270 E3.41226
G1 X52.975 Y55.754 E3.47714
G1 X53.759 Y55.429 E3.54203
G1 X54.600 Y55.318 E3.60691
G1 X55.441 Y55.429 E3.67180
G1 X56.057 Y55.684 E3.72277
G1 X56.225 Y55.754 E3.73668
G1 X56.899 Y56.270 E3.80157
G1 X57.415 Y56.943 E3.86645
G1 X57.485 Y57.112 E3.88037
G1 X57.740 Y57.727 E3.93134
G1 X57.851 Y58.569 E3.99622
G1 X57.740 Y59.410 E4.06111
G1 X57.415 Y60.194 E4.12599
G1 X56.899 Y60.867 E4.19088
G1 X56.225 Y61.384 E4.25576
G1 X55.441 Y61.709 E4.32065
G1 X54.685 Y61.808 E4.37894
G1 X54.600 Y61.240 F7800.000
G1 X53.909 Y61.149 F540.000 E4.43226
G1 X53.264 Y60.882 E4.48557
G1 X52.711 Y60.457 E4.53889
G1 X52.287 Y59.904 E4.59221
G1 X52.020 Y59.260 E4.64552
G1 X51.929 Y58.569 E4.69884
G1 X52.020 Y57.877 E4.75215
G1 X52.287 Y57.233 E4.80547
G1 X52.711 Y56.680 E4.85879
G1 X53.264 Y56.256 E4.91210
G1 X53.909 Y55.989 E4.96542
G1 X54.600 Y55.898 E5.01874
G1 X55.291 Y55.989 E5.07205
G1 X55.837 Y56.215 E5.11724
G1 X55.936 Y56.256 E5.12537
G1 X56.489 Y56.680 E5.17868
G1 X56.913 Y57.233 E5.23200
G1 X56.954 Y57.331 E5.24013
G1 X57.180 Y57.877 E5.28532
G1 X57.271 Y58.569 E5.33863
G1 X57.180 Y59.260 E5.39195
G1 X56.913 Y59.904 E5.44526
G1 X56.489 Y60.457 E5.49858
G1 X55.936 Y60.882 E5.55190
G1 X55.291 Y61.149 E5.60521
G1 X54.685 Y61.229 E5.65194
G1 X54.335 Y60.730 F7800.000
G1 F1800.000 E4.65194
G92 E0
G1 X101.570 Y58.569 F7800.000
G1 F1800.000 E1.00000
G1 X101.700 Y57.577 F540.000 E1.07645
G1 X101.799 Y57.339 E1.09615
G1 X102.083 Y56.654 E1.15291
G1 X102.692 Y55.860 E1.22936
G1 X103.485 Y55.252 E1.30582
G1 X104.171 Y54.968 E1.36257
G1 X104.409 Y54.869 E1.38227
G1 X105.400 Y54.739 E1.45872
G1 X106.391 Y54.869 E1.53518
G1 X107.315 Y55.252 E1.61163
G1 X108.108 Y55.860 E1.68808
G1 X108.717 Y56.654 E1.76454
G1 X109.100 Y57.577 E1.84099
G1 X109.230 Y58.569 E1.91744
G1 X109.100 Y59.560 E1.99390
G1 X108.717 Y60.484 E2.07035
G1 X108.108 Y61.277 E2.14680
G1 X107.315 Y61.886 E2.22326
G1 X106.629 Y62.170 E2.28001
G1 X106.391 Y62.268 E2.29971
G1 X105.400 Y62.399 E2.37616
G1 X104.409 Y62.268 E2.45262
G1 X103.485 Y61.886 E2.52907
G1 X102.692 Y61.277 E2.60553
G1 X102.083 Y60.484 E2.68198
G1 X101.700 Y59.560 E2.75843
G1 X101.581 Y58.654 E2.82830
G1 X102.149 Y58.569 F7800.000
G1 X102.260 Y57.727 F540.000 E2.89318
G1 X102.330 Y57.559 E2.90710
G1 X102.585 Y56.943 E2.95807
G1 X103.101 Y56.270 E3.02295
G1 X103.775 Y55.754 E3.08784
G1 X104.391 Y55.499 E3.13880
G1 X104.559 Y55.429 E3.15272
G1 X105.400 Y55.318 E3.21760
G1 X106.241 Y55.429 E3.28249
G1 X107.025 Y55.754 E3.34737
G1 X107.699 Y56.270 E3.41226
G1 X108.215 Y56.943 E3.47714
G1 X108.540 Y57.727 E3.54203
G1 X108.651 Y58.569 E3.60691
G1 X108.540 Y59.410 E3.67180
G1 X108.470 Y59.578 E3.68572
G1 X108.215 Y60.194 E3.73668
G1 X107.699 Y60.867 E3.80157
G1 X107.025 Y61.384 E3.86645
G1 X106.409 Y61.639 E3.91742
G1 X106.241 Y61.709 E3.93134
G1 X105.400 Y61.819 E3.99622
G1 X104.559 Y61.709 E4.06111
G1 X103.943 Y61.454 E4.11208
G1 X103.775 Y61.384 E4.12599
G1 X103.101 Y60.867 E4.19088
G1 X102.585 Y60.194 E4.25576
G1 X102.260 Y59.410 E4.32065
G1 X102.161 Y58.654 E4.37894
G1 X102.729 Y58.569 F7800.000
G1 X102.820 Y57.877 F540.000 E4.43226
G1 X102.861 Y57.779 E4.44039
G1 X103.087 Y57.233 E4.48557
G1 X103.511 Y56.680 E4.53889
G1 X104.064 Y56.256 E4.59221
G1 X104.610 Y56.029 E4.63739
G1 X104.709 Y55.989 E4.64552
G1 X105.400 Y55.898 E4.69884
G1 X106.091 Y55.989 E4.75215
G1 X106.637 Y56.215 E4.79734
G1 X106.736 Y56.256 E4.80547
G1 X107.289 Y56.680 E4.85879
G1 X107.713 Y57.233 E4.91210
G1 X107.980 Y57.877 E4.96542
G1 X108.071 Y58.569 E5.01874
G1 X107.980 Y59.260 E5.07205
G1 X107.939 Y59.358 E5.08018
G1 X107.713 Y59.904 E5.12537
G1 X107.289 Y60.457 E5.17868
G1 X106.736 Y60.882 E5.23200
G1 X106.190 Y61.108 E5.27718
G1 X106.091 Y61.149 E5.28532
G1 X105.400 Y61.240 E5.33863
G1 X104.709 Y61.149 E5.39195
G1 X104.163 Y60.923 E5.43713
G1 X104.064 Y60.882 E5.44526
G1 X103.511 Y60.457 E5.49858
G1 X103.087 Y59.904 E5.55190
G1 X102.820 Y59.260 E5.60521
G1 X102.740 Y58.654 E5.65194
G1 X103.239 Y58.303 F7800.000
G1 F1800.000 E4.65194
G92 E0
G1 X105.400 Y97.601 F7800.000
G1 F1800.000 E1.00000
G1 X106.391 Y97.732 F540.000 E1.07645
G1 X107.315 Y98.114 E1.15291
G1 X108.108 Y98.723 E1.22936
G1 X108.717 Y99.516 E1.30581
G1 X109.100 Y100.440 E1.38227
G1 X109.230 Y101.431 E1.45872
G1 X109.100 Y102.423 E1.53518
G1 X108.717 Y103.346 E1.61163
G1 X108.108 Y104.140 E1.68808
G1 X107.315 Y104.748 E1.76454
G1 X106.629 Y105.032 E1.82129
G1 X106.391 Y105.131 E1.84099
G1 X105.400 Y105.261 E1.91744
G1 X104.409 Y105.131 E1.99390
G1 X103.485 Y104.748 E2.07035
G1 X102.692 Y104.140 E2.14680
G1 X102.083 Y103.346 E2.22326
G1 X101.700 Y102.423 E2.29971
G1 X101.570 Y101.431 E2.37616
G1 X101.700 Y100.440 E2.45262
G1 X102.083 Y99.516 E2.52907
G1 X102.692 Y98.723 E2.60553
G1 X103.485 Y98.114 E2.68198
G1 X104.409 Y97.732 E2.75843
G1 X105.315 Y97.612 E2.82830
G1 X105.400 Y98.181 F7800.000
G1 X106.241 Y98.291 F540.000 E2.89318
G1 X107.025 Y98.616 E2.95807
G1 X107.699 Y99.133 E3.02295
G1 X108.215 Y99.806 E3.08784
G1 X108.540 Y100.590 E3.15272
G1 X108.651 Y101.431 E3.21760
G1 X108.540 Y102.273 E3.28249
G1 X108.215 Y103.057 E3.34737
G1 X107.699 Y103.730 E3.41226
G1 X107.025 Y104.246 E3.47715
G1 X106.409 Y104.501 E3.52811
G1 X106.241 Y104.571 E3.54203
G1 X105.400 Y104.682 E3.60691
G1 X104.559 Y104.571 E3.67180
G1 X103.775 Y104.246 E3.73668
G1 X103.101 Y103.730 E3.80157
G1 X102.585 Y103.057 E3.86645
G1 X102.260 Y102.273 E3.93134
G1 X102.149 Y101.431 E3.99622
G1 X102.260 Y100.590 E4.06111
G1 X102.585 Y99.806 E4.12599
G1 X103.101 Y99.133 E4.19088
G1 X103.775 Y98.616 E4.25576
G1 X104.559 Y98.291 E4.32065
G1 X105.315 Y98.192 E4.37894
G1 X105.400 Y98.760 F7800.000
G1 X106.091 Y98.851 F540.000 E4.43226
G1 X106.736 Y99.118 E4.48557
G1 X107.289 Y99.543 E4.53889
G1 X107.713 Y100.096 E4.59221
G1 X107.980 Y100.740 E4.64552
G1 X108.071 Y101.431 E4.69884
G1 X107.980 Y102.123 E4.75216
G1 X107.713 Y102.767 E4.80547
G1 X107.289 Y103.320 E4.85879
G1 X106.736 Y103.744 E4.91210
G1 X106.190 Y103.971 E4.95729
G1 X106.091 Y104.011 E4.96542
G1 X105.400 Y104.102 E5.01874
G1 X104.709 Y104.011 E5.07205
G1 X104.064 Y103.744 E5.12537
G1 X103.511 Y103.320 E5.17868
G1 X103.087 Y102.767 E5.23200
G1 X102.820 Y102.123 E5.28532
G1 X102.729 Y101.431 E5.33863
G1 X102.820 Y100.740 E5.39195
G1 X103.087 Y100.096 E5.44526
G1 X103.511 Y99.543 E5.49858
G1 X104.064 Y99.118 E5.55190
G1 X104.709 Y98.851 E5.60521
G1 X105.315 Y98.771 E5.65194
G1 X105.665 Y99.270 F7800.000
G1 F1800.000 E4.65194
G92 E0
G1 X113.488 Y110.313 F7800.000
G1 F1800.000 E1.00000
G1 X46.512 Y110.313 F540.000 E6.12126
G1 X46.512 Y49.687 E10.75697
G1 X113.488 Y49.687 E15.87823
G1 X113.488 Y110.227 E20.50736
G1 X114.063 Y110.888 F7800.000
G1 X45.937 Y110.888 F540.000 E25.71649
G1 X45.937 Y49.112 E30.44008
G1 X114.063 Y49.112 E35.64921
G1 X114.063 Y110.802 E40.36621
G1 X114.638 Y111.463 F7800.000
G1 X45.362 Y111.463 F378.000 E45.66321
G1 X45.362 Y48.537 E50.47467
G1 X114.638 Y48.537 E55.77168
G1 X114.638 Y111.377 E60.57655
G1 X114.140 Y111.175 F7800.000
G1 X102.849 Y104.786
G1 X107.961 Y109.897 F1080.000 E61.12944
G1 X108.774 Y109.897 E61.19162
G1 X104.431 Y105.554 E61.66140
G1 X105.367 Y105.677 E61.73362
G1 X109.587 Y109.897 E62.19007
G1 X110.399 Y109.897 E62.25225
G1 X106.093 Y105.590 E62.71809
G1 X106.749 Y105.434 E62.76969
G1 X111.212 Y109.897 E63.25248
G1 X112.025 Y109.897 E63.31466
G1 X107.324 Y105.196 E63.82320
G1 X107.824 Y104.883 E63.86832
G1 X112.838 Y109.897 E64.41069
G1 X113.072 Y109.318 E64.45845
G1 X108.284 Y104.530 E64.97637
G1 X108.665 Y104.098 E65.02042
G1 X113.072 Y108.505 E65.49711
G1 X113.072 Y107.692 E65.55929
G1 X109.018 Y103.638 E65.99780
G1 X109.276 Y103.084 E66.04459
G1 X113.072 Y106.880 E66.45514
G1 X113.072 Y106.067 E66.51731
G1 X109.509 Y102.504 E66.90270
G1 X109.604 Y101.785 E66.95812
G1 X113.072 Y105.254 E67.33328
G1 X113.072 Y104.441 E67.39546
G1 X109.588 Y100.957 E67.77234
G1 X109.315 Y99.871 E67.85798
G1 X113.072 Y103.628 E68.26440
G1 X113.072 Y102.815 E68.32657
G1 X60.360 Y50.103 E74.02832
G1 X61.173 Y50.103 E74.09049
G1 X113.072 Y102.002 E79.70430
G1 X113.072 Y101.189 E79.76648
G1 X61.986 Y50.103 E85.29237
G1 X62.798 Y50.103 E85.35454
G1 X113.072 Y100.377 E90.79250
G1 X113.072 Y99.564 E90.85467
G1 X63.611 Y50.103 E96.20471
G1 X64.424 Y50.103 E96.26688
G1 X113.072 Y98.751 E101.52900
G1 X113.072 Y97.938 E101.59117
G1 X65.237 Y50.103 E106.76535
G1 X66.050 Y50.103 E106.82753
G1 X113.072 Y97.125 E111.91379
G1 X113.072 Y96.312 E111.97596
G1 X66.863 Y50.103 E116.97429
G1 X67.676 Y50.103 E117.03647
G1 X113.072 Y95.499 E121.94687
G1 X113.072 Y94.686 E122.00905
G1 X68.489 Y50.103 E126.83153
G1 X69.301 Y50.103 E126.89370
G1 X113.072 Y93.874 E131.62825
G1 X113.072 Y93.061 E131.69043
G1 X70.114 Y50.103 E136.33706
G1 X70.927 Y50.103 E136.39923
G1 X113.072 Y92.248 E140.95793
G1 X113.072 Y91.435 E141.02011
G1 X71.740 Y50.103 E145.49088
G1 X72.553 Y50.103 E145.55306
G1 X113.072 Y90.622 E149.93591
G1 X113.072 Y89.809 E149.99808
G1 X73.366 Y50.103 E154.29300
G1 X74.179 Y50.103 E154.35518
G1 X113.072 Y88.996 E158.56218
G1 X113.072 Y88.184 E158.62435
G1 X74.991 Y50.103 E162.74342
G1 X75.804 Y50.103 E162.80560
G1 X113.072 Y87.371 E166.83674
G1 X113.072 Y86.558 E166.89892
G1 X76.617 Y50.103 E170.84214
G1 X77.430 Y50.103 E170.90431
G1 X113.072 Y85.745 E174.75961
G1 X113.072 Y84.932 E174.82178
G1 X78.243 Y50.103 E178.58915
G1 X79.056 Y50.103 E178.65132
G1 X113.072 Y84.119 E182.33076
G1 X113.072 Y83.306 E182.39294
G1 X79.869 Y50.103 E185.98445
G1 X80.682 Y50.103 E186.04663
G1 X113.072 Y82.493 E189.55022
G1 X113.072 Y81.681 E189.61239
G1 X81.494 Y50.103 E193.02806
G1 X82.307 Y50.103 E193.09023
G1 X113.072 Y80.868 E196.41797
G1 X113.072 Y80.055 E196.48014
G1 X83.120 Y50.103 E199.71995
G1 X83.933 Y50.103 E199.78213
G1 X113.072 Y79.242 E202.93401
G1 X113.072 Y78.429 E202.99619
G1 X84.746 Y50.103 E206.06015
G1 X85.559 Y50.103 E206.12232
G1 X113.072 Y77.616 E209.09836
G1 X113.072 Y76.803 E209.16053
