; generated by Slic3r 0.9.10b on 2014-02-14 at 19:31:00

; layer_height = 0.3
; perimeters = 3
; top_solid_layers = 3
; bottom_solid_layers = 3
; fill_density = 0.4
; perimeter_speed = 30
; infill_speed = 60
; travel_speed = 130
; nozzle_diameter = 0.5
; filament_diameter = 1.83
; extrusion_multiplier = 1
; perimeters extrusion width = 0.70mm
; infill extrusion width = 0.70mm
; solid infill extrusion width = 0.70mm
; top infill extrusion width = 0.70mm
; first layer extrusion width = 0.59mm

G21 ; set units to millimeters
M107
M190 S100 ; wait for bed temperature to be reached
M104 S230 ; set temperature
G28 ; home all axes
G1 Z5 F5000 ; lift nozzle
M109 S230 ; wait for temperature to be reached
G90 ; use absolute coordinates
G92 E0
M82 ; use absolute distances for extrusion
G1 F1800.000 E-1.00000
G92 E0
G1 Z0.150 F7800.000
G1 X29.917 Y8.870
G1 F1800.000 E1.00000
G1 X30.297 Y7.630 F540.000 E1.09917
G1 X30.897 Y6.500 E1.19699
G1 X31.717 Y5.500 E1.29588
G1 X32.717 Y4.680 E1.39476
G1 X33.847 Y4.080 E1.49259
G1 X35.087 Y3.700 E1.59175
G1 X36.367 Y3.580 E1.69006
G1 X116.887 Y3.580 E7.84686
G1 X118.237 Y3.720 E7.95063
G1 X119.537 Y4.130 E8.05486
G1 X120.717 Y4.810 E8.15900
G1 X121.737 Y5.710 E8.26301
G1 X122.547 Y6.800 E8.36685
G1 X123.117 Y8.040 E8.47120
G1 X123.417 Y9.360 E8.57471
G1 X130.157 Y65.360 E12.88753
G1 X130.197 Y66.150 E12.94802
G1 X130.197 Y77.310 E13.80134
G1 X130.067 Y94.240 E15.09590
G1 X129.937 Y95.500 E15.19276
G1 X129.567 Y96.720 E15.29024
G1 X128.967 Y97.840 E15.38739
G1 X128.157 Y98.820 E15.48461
G1 X85.477 Y141.780 E20.11497
G1 X84.927 Y142.280 E20.17181
G1 X69.047 Y154.980 E21.72659
G1 X67.797 Y155.770 E21.83966
G1 X66.407 Y156.260 E21.95235
G1 X64.937 Y156.420 E22.06542
G1 X52.237 Y156.420 E23.03650
G1 X50.767 Y156.260 E23.14956
G1 X49.377 Y155.770 E23.26226
G1 X48.127 Y154.980 E23.37532
G1 X32.257 Y142.280 E24.92951
G1 X31.217 Y141.240 E25.04197
G1 X30.437 Y140.000 E25.15398
G1 X29.957 Y138.610 E25.26643
G1 X29.797 Y137.150 E25.37873
G1 X29.797 Y10.150 E35.08953
G1 X29.909 Y8.956 E35.18124
G1 F1800.000 E34.18124
G92 E0
G1 X94.111 Y20.576 F7800.000
G1 F1800.000 E1.00000
G1 X109.684 Y20.576 F540.000 E2.19076
G1 X109.684 Y50.480 E4.47734
G1 X94.111 Y50.480 E5.66810
G1 X94.111 Y20.662 E7.94808
G1 X94.686 Y21.151 F7800.000
G1 X109.110 Y21.151 F540.000 E9.05097
G1 X109.110 Y49.906 E11.24967
G1 X94.686 Y49.906 E12.35256
G1 X94.686 Y21.237 E14.54467
G1 X95.261 Y21.725 F7800.000
G1 X108.535 Y21.725 F378.000 E15.55969
G1 X108.535 Y49.331 E17.67052
G1 X95.261 Y49.331 E18.68553
G1 X95.261 Y21.811 E20.78977
G1 X95.758 Y22.012 F7800.000
G1 F1800.000 E19.78977
G92 E0
G1 X98.874 Y19.524 F7800.000
G1 F1800.000 E1.00000
G1 X104.922 Y19.524 F540.000 E1.46245
G1 X104.922 Y11.587 E2.06938
G1 X115.455 Y11.587 E2.87478
G1 X115.455 Y59.513 E6.53941
G1 X88.341 Y59.513 E8.61266
G1 X88.341 Y11.587 E12.27730
G1 X98.874 Y11.587 E13.08270
G1 X98.874 Y19.438 E13.68304
G1 X99.448 Y18.949 F7800.000
G1 X104.347 Y18.949 F540.000 E14.05761
G1 X104.347 Y11.012 E14.66454
G1 X116.030 Y11.012 E15.55781
G1 X116.030 Y60.088 E19.31032
G1 X87.766 Y60.088 E21.47145
G1 X87.766 Y11.012 E25.22396
G1 X99.448 Y11.012 E26.11723
G1 X99.448 Y18.863 E26.71756
G1 X100.023 Y18.375 F7800.000
G1 X103.773 Y18.375 F378.000 E27.00427
G1 X103.773 Y10.437 E27.61119
G1 X116.604 Y10.437 E28.59234
G1 X116.604 Y60.663 E32.43272
G1 X87.191 Y60.663 E34.68172
G1 X87.191 Y10.437 E38.52210
G1 X100.023 Y10.437 E39.50325
G1 X100.023 Y18.289 E40.10358
G1 X100.023 Y18.949 F7800.000
G1 F1800.000 E39.10358
G92 E0
G1 X105.338 Y16.276 F7800.000
G1 F1800.000 E1.00000
G1 X109.222 Y20.159 F1080.000 E1.42268
G1 X108.404 Y20.159 E1.48561
G1 X105.338 Y17.094 E1.81928
G1 X105.338 Y17.911 E1.88222
G1 X107.587 Y20.159 E2.12688
G1 X106.769 Y20.159 E2.18982
G1 X105.338 Y18.729 E2.34547
G1 X105.338 Y19.547 E2.40841
G1 X105.951 Y20.159 E2.47506
G1 X110.040 Y20.159 F7800.000
G1 X105.338 Y15.458 F1080.000 E2.98674
G1 X105.338 Y14.640 E3.04968
G1 X115.039 Y24.340 E4.10535
G1 X115.039 Y23.522 E4.16829
G1 X105.338 Y13.822 E5.22397
G1 X105.338 Y13.004 E5.28690
G1 X115.039 Y22.705 E6.34258
G1 X115.039 Y21.887 E6.40551
G1 X105.338 Y12.186 E7.46119
G1 X105.973 Y12.003 F7800.000
G1 X115.039 Y21.069 F1080.000 E8.44782
G1 X115.039 Y20.251 E8.51076
G1 X106.791 Y12.003 E9.40838
G1 X107.609 Y12.003 E9.47132
G1 X115.039 Y19.433 E10.27994
G1 X115.039 Y18.615 E10.34288
G1 X108.426 Y12.003 E11.06249
G1 X109.244 Y12.003 E11.12543
G1 X115.039 Y17.797 E11.75604
G1 X115.039 Y16.980 E11.81897
G1 X110.062 Y12.003 E12.36057
G1 X110.880 Y12.003 E12.42351
G1 X115.039 Y16.162 E12.87611
G1 X115.039 Y15.344 E12.93904
G1 X111.698 Y12.003 E13.30263
G1 X112.516 Y12.003 E13.36557
G1 X115.039 Y14.526 E13.64016
G1 X115.039 Y13.708 E13.70309
G1 X113.333 Y12.003 E13.88867
G1 X114.151 Y12.003 E13.95161
G1 X115.039 Y12.890 E14.04818
G1 X115.039 Y12.073 E14.11112
G1 X114.969 Y12.003 E14.11868
G1 X110.101 Y20.220 F7800.000
G1 X115.039 Y25.158 F1080.000 E14.65606
G1 X115.039 Y25.976 E14.71899
G1 X110.101 Y21.038 E15.25637
G1 X110.101 Y21.856 E15.31930
G1 X115.039 Y26.794 E15.85667
G1 X115.039 Y27.612 E15.91961
G1 X110.101 Y22.674 E16.45698
G1 X110.101 Y23.492 E16.51992
G1 X115.039 Y28.429 E17.05729
G1 X115.039 Y29.247 E17.12023
G1 X110.101 Y24.310 E17.65760
G1 X110.101 Y25.127 E17.72054
G1 X115.039 Y30.065 E18.25791
G1 X115.039 Y30.883 E18.32085
G1 X110.101 Y25.945 E18.85822
G1 X110.101 Y26.763 E18.92116
G1 X115.039 Y31.701 E19.45853
G1 X115.039 Y32.519 E19.52147
G1 X110.101 Y27.581 E20.05884
G1 X110.101 Y28.399 E20.12178
G1 X115.039 Y33.337 E20.65915
G1 X115.039 Y34.154 E20.72209
G1 X110.101 Y29.217 E21.25946
G1 X110.101 Y30.034 E21.32240
G1 X115.039 Y34.972 E21.85977
G1 X115.039 Y35.790 E21.92271
G1 X110.101 Y30.852 E22.46008
G1 X110.101 Y31.670 E22.52302
G1 X115.039 Y36.608 E23.06039
G1 X115.039 Y37.426 E23.12332
G1 X110.101 Y32.488 E23.66070
G1 X110.101 Y33.306 E23.72363
G1 X115.039 Y38.244 E24.26101
G1 X115.039 Y39.061 E24.32394
G1 X110.101 Y34.124 E24.86132
G1 X110.101 Y34.942 E24.92425
G1 X115.039 Y39.879 E25.46163
G1 X115.039 Y40.697 E25.52456
G1 X110.101 Y35.759 E26.06194
G1 X110.101 Y36.577 E26.12487
G1 X115.039 Y41.515 E26.66224
G1 X115.039 Y42.333 E26.72518
G1 X110.101 Y37.395 E27.26255
G1 X110.101 Y38.213 E27.32549
G1 X115.039 Y43.151 E27.86286
G1 X115.039 Y43.969 E27.92580
G1 X110.101 Y39.031 E28.46317
G1 X110.101 Y39.849 E28.52611
G1 X115.039 Y44.786 E29.06348
G1 X115.039 Y45.604 E29.12642
G1 X110.101 Y40.666 E29.66379
G1 X110.101 Y41.484 E29.72673
G1 X115.039 Y46.422 E30.26410
G1 X115.039 Y47.240 E30.32704
G1 X110.101 Y42.302 E30.86441
G1 X110.101 Y43.120 E30.92735
G1 X115.039 Y48.058 E31.46472
G1 X115.039 Y48.876 E31.52766
G1 X110.101 Y43.938 E32.06503
G1 X110.101 Y44.756 E32.12797
G1 X115.039 Y49.693 E32.66534
G1 X115.039 Y50.511 E32.72828
G1 X110.101 Y45.574 E33.26565
G1 X110.101 Y46.391 E33.32859
G1 X115.039 Y51.329 E33.86596
G1 X115.039 Y52.147 E33.92890
G1 X110.101 Y47.209 E34.46627
G1 X110.101 Y48.027 E34.52921
G1 X115.039 Y52.965 E35.06658
G1 X115.039 Y53.783 E35.12951
G1 X110.101 Y48.845 E35.66689
G1 X110.101 Y49.663 E35.72982
G1 X115.039 Y54.601 E36.26720
G1 X115.039 Y55.418 E36.33013
G1 X110.101 Y50.481 E36.86751
G1 X109.699 Y50.897 E36.91202
G1 X115.039 Y56.236 E37.49311
G1 X115.039 Y57.054 E37.55604
G1 X108.881 Y50.897 E38.22614
G1 X108.064 Y50.897 E38.28908
G1 X115.039 Y57.872 E39.04818
G1 X115.039 Y58.690 E39.11112
G1 X107.246 Y50.897 E39.95923
G1 X106.428 Y50.897 E40.02216
G1 X114.628 Y59.097 E40.91459
G1 X113.810 Y59.097 E40.97753
G1 X105.610 Y50.897 E41.86996
G1 X104.792 Y50.897 E41.93290
G1 X112.992 Y59.097 E42.82533
G1 X112.175 Y59.097 E42.88826
G1 X103.974 Y50.897 E43.78069
G1 X103.156 Y50.897 E43.84363
G1 X111.357 Y59.097 E44.73606
G1 X110.539 Y59.097 E44.79900
G1 X102.339 Y50.897 E45.69143
G1 X101.521 Y50.897 E45.75436
G1 X109.721 Y59.097 E46.64679
G1 X108.903 Y59.097 E46.70973
G1 X100.703 Y50.897 E47.60216
G1 X99.885 Y50.897 E47.66509
G1 X108.085 Y59.097 E48.55752
G1 X107.267 Y59.097 E48.62046
G1 X99.067 Y50.897 E49.51289
G1 X98.249 Y50.897 E49.57583
G1 X106.450 Y59.097 E50.46826
G1 X105.632 Y59.097 E50.53119
G1 X97.432 Y50.897 E51.42362
G1 X96.614 Y50.897 E51.48656
G1 X104.814 Y59.097 E52.37899
G1 X103.996 Y59.097 E52.44192
G1 X95.796 Y50.897 E53.33435
G1 X94.978 Y50.897 E53.39729
G1 X103.178 Y59.097 E54.28972
G1 X94.160 Y50.897 F7800.000
G1 X102.360 Y59.097 F1080.000 E55.18215
G1 X101.543 Y59.097 E55.24509
G1 X88.757 Y46.312 E56.63651
G1 X88.757 Y47.129 E56.69945
G1 X100.725 Y59.097 E58.00187
G1 X99.907 Y59.097 E58.06481
G1 X88.757 Y47.947 E59.27822
G1 X88.757 Y48.765 E59.34116
G1 X99.089 Y59.097 E60.46557
G1 X98.271 Y59.097 E60.52850
G1 X88.757 Y49.583 E61.56391
G1 X88.757 Y50.401 E61.62684
G1 X97.453 Y59.097 E62.57324
G1 X96.635 Y59.097 E62.63618
G1 X88.757 Y51.219 E63.49357
G1 X88.757 Y52.037 E63.55650
G1 X95.818 Y59.097 E64.32489
G1 X95.000 Y59.097 E64.38783
G1 X88.757 Y52.854 E65.06720
G1 X88.757 Y53.672 E65.13014
G1 X94.182 Y59.097 E65.72051
G1 X93.364 Y59.097 E65.78345
G1 X88.757 Y54.490 E66.28482
G1 X88.757 Y55.308 E66.34775
G1 X92.546 Y59.097 E66.76011
G1 X91.728 Y59.097 E66.82305
G1 X88.757 Y56.126 E67.14641
G1 X88.757 Y56.944 E67.20934
G1 X90.911 Y59.097 E67.44369
G1 X90.093 Y59.097 E67.50663
G1 X88.757 Y57.761 E67.65197
G1 X88.757 Y58.579 E67.71491
G1 X89.275 Y59.097 E67.77125
G1 X93.695 Y50.432 F7800.000
G1 X88.757 Y45.494 F1080.000 E68.30862
G1 X88.757 Y44.676 E68.37156
G1 X93.695 Y49.614 E68.90893
G1 X93.695 Y48.796 E68.97187
G1 X88.757 Y43.858 E69.50924
G1 X88.757 Y43.040 E69.57217
G1 X93.695 Y47.978 E70.10955
G1 X93.695 Y47.160 E70.17248
G1 X88.757 Y42.222 E70.70986
G1 X88.757 Y41.405 E70.77279
G1 X93.695 Y46.342 E71.31017
G1 X93.695 Y45.524 E71.37310
G1 X88.757 Y40.587 E71.91048
G1 X88.757 Y39.769 E71.97341
G1 X93.695 Y44.707 E72.51079
G1 X93.695 Y43.889 E72.57372
G1 X88.757 Y38.951 E73.11109
G1 X88.757 Y38.133 E73.17403
G1 X93.695 Y43.071 E73.71140
G1 X93.695 Y42.253 E73.77434
G1 X88.757 Y37.315 E74.31171
G1 X88.757 Y36.497 E74.37465
G1 X93.695 Y41.435 E74.91202
G1 X93.695 Y40.617 E74.97496
G1 X88.757 Y35.680 E75.51233
G1 X88.757 Y34.862 E75.57527
G1 X93.695 Y39.800 E76.11264
G1 X93.695 Y38.982 E76.17558
G1 X88.757 Y34.044 E76.71295
G1 X88.757 Y33.226 E76.77589
G1 X93.695 Y38.164 E77.31326
G1 X93.695 Y37.346 E77.37620
G1 X88.757 Y32.408 E77.91357
G1 X88.757 Y31.590 E77.97651
G1 X93.695 Y36.528 E78.51388
G1 X93.695 Y35.710 E78.57682
G1 X88.757 Y30.773 E79.11419
G1 X88.757 Y29.955 E79.17713
G1 X93.695 Y34.892 E79.71450
G1 X93.695 Y34.075 E79.77743
G1 X88.757 Y29.137 E80.31481
G1 X88.757 Y28.319 E80.37774
G1 X93.695 Y33.257 E80.91512
G1 X93.695 Y32.439 E80.97805
G1 X88.757 Y27.501 E81.51543
G1 X88.757 Y26.683 E81.57836
G1 X93.695 Y31.621 E82.11574
G1 X93.695 Y30.803 E82.17867
G1 X88.757 Y25.865 E82.71605
G1 X88.757 Y25.048 E82.77898
G1 X93.695 Y29.985 E83.31635
G1 X93.695 Y29.168 E83.37929
G1 X88.757 Y24.230 E83.91666
G1 X88.757 Y23.412 E83.97960
G1 X93.695 Y28.350 E84.51697
G1 X93.695 Y27.532 E84.57991
G1 X88.757 Y22.594 E85.11728
G1 X88.757 Y21.776 E85.18022
G1 X93.695 Y26.714 E85.71759
G1 X93.695 Y25.896 E85.78053
G1 X88.757 Y20.958 E86.31790
G1 X88.757 Y20.141 E86.38084
G1 X93.695 Y25.078 E86.91821
G1 X93.695 Y24.260 E86.98115
G1 X88.757 Y19.323 E87.51852
G1 X88.757 Y18.505 E87.58146
G1 X93.695 Y23.443 E88.11883
G1 X93.695 Y22.625 E88.18177
G1 X88.757 Y17.687 E88.71914
G1 X88.757 Y16.869 E88.78208
G1 X93.695 Y21.807 E89.31945
G1 X93.695 Y20.989 E89.38239
G1 X88.757 Y16.051 E89.91976
G1 X88.757 Y15.233 E89.98270
G1 X93.695 Y20.171 E90.52007
G1 X94.501 Y20.159 E90.58211
G1 X88.757 Y14.416 E91.20721
G1 X88.757 Y13.598 E91.27015
G1 X95.319 Y20.159 E91.98425
G1 X96.137 Y20.159 E92.04719
G1 X88.757 Y12.780 E92.85030
G1 X88.798 Y12.003 E92.91017
G1 X96.955 Y20.159 E93.79784
G1 X97.772 Y20.159 E93.86078
G1 X89.616 Y12.003 E94.74845
G1 X90.434 Y12.003 E94.81138
G1 X98.457 Y20.027 E95.68460
G1 X98.457 Y19.209 E95.74753
G1 X91.252 Y12.003 E96.53174
G1 X92.069 Y12.003 E96.59468
G1 X98.457 Y18.391 E97.28988
G1 X98.457 Y17.573 E97.35281
G1 X92.887 Y12.003 E97.95901
G1 X93.705 Y12.003 E98.02194
G1 X98.457 Y16.755 E98.53913
G1 X98.457 Y15.937 E98.60207
G1 X94.523 Y12.003 E99.03025
G1 X95.341 Y12.003 E99.09319
G1 X98.457 Y15.120 E99.43237
G1 X98.457 Y14.302 E99.49530
G1 X96.159 Y12.003 E99.74547
G1 X96.977 Y12.003 E99.80841
G1 X98.457 Y13.484 E99.96957
G1 X98.457 Y12.666 E100.03251
G1 X97.794 Y12.003 E100.10467
G1 X99.106 Y20.170 F7800.000
G1 X98.867 Y19.930 F360.000 E100.11794
G1 X99.283 Y19.930 E100.13425
G1 X99.523 Y20.170 E100.14752
G1 X99.699 Y19.930 E100.15919
G1 X99.939 Y20.170 E100.17246
G1 X100.116 Y19.930 E100.18412
G1 X100.355 Y20.170 E100.19739
G1 X100.532 Y19.930 E100.20906
G1 X100.772 Y20.170 E100.22233
G1 X100.948 Y19.930 E100.23399
G1 X101.188 Y20.170 E100.24726
G1 X101.365 Y19.930 E100.25893
G1 X101.604 Y20.170 E100.27220
G1 X101.781 Y19.930 E100.28386
G1 X102.021 Y20.170 E100.29713
G1 X102.197 Y19.930 E100.30880
G1 X102.437 Y20.170 E100.32207
G1 X102.614 Y19.930 E100.33373
G1 X102.853 Y20.170 E100.34700
G1 X103.030 Y19.930 E100.35866
G1 X103.270 Y20.170 E100.37194
G1 X103.447 Y19.930 E100.38360
G1 X103.686 Y20.170 E100.39687
G1 X103.863 Y19.930 E100.40853
G1 X104.102 Y20.170 E100.42181
G1 X104.279 Y19.930 E100.43347
G1 X104.519 Y20.170 E100.44674
G1 X104.696 Y19.930 E100.45840
G1 X104.935 Y20.170 E100.47167
G1 F1800.000 E99.47167
G92 E0
G1 X79.297 Y26.887 F7800.000
G1 F1800.000 E1.00000
G1 X72.811 Y26.887 F540.000 E1.49596
G1 X72.811 Y12.463 E2.59885
G1 X79.297 Y12.463 E3.09482
G1 X79.297 Y26.801 E4.19112
G1 X78.723 Y26.312 F7800.000
G1 X73.386 Y26.312 F540.000 E4.59921
G1 X73.386 Y13.038 E5.61423
G1 X78.723 Y13.038 E6.02232
G1 X78.723 Y26.226 E7.03074
G1 X78.225 Y26.025 F7800.000
G1 F1800.000 E6.03074
G92 E0
G1 X45.166 Y26.887 F7800.000
G1 F1800.000 E1.00000
G1 X38.680 Y26.887 F540.000 E1.49596
G1 X38.680 Y12.463 E2.59885
G1 X45.166 Y12.463 E3.09482
G1 X45.166 Y26.801 E4.19112
G1 X44.591 Y26.312 F7800.000
G1 X39.254 Y26.312 F540.000 E4.59921
G1 X39.254 Y13.038 E5.61423
G1 X44.591 Y13.038 E6.02232
G1 X44.591 Y26.226 E7.03074
G1 X44.094 Y26.025 F7800.000
G1 X45.166 Y60.882
G1 X45.166 Y75.306 F540.000 E8.13363
G1 X38.680 Y75.306 E8.62960
G1 X38.680 Y60.882 E9.73249
G1 X45.080 Y60.882 E10.22186
G1 X44.591 Y61.456 F7800.000
G1 X44.591 Y74.731 F540.000 E11.23688
G1 X39.254 Y74.731 E11.64497
G1 X39.254 Y61.456 E12.65999
G1 X44.505 Y61.456 E13.06149
G1 X44.304 Y61.954 F7800.000
G1 X72.811 Y60.882
G1 X79.297 Y60.882 F540.000 E13.55745
G1 X79.297 Y75.306 E14.66034
G1 X72.811 Y75.306 E15.15631
G1 X72.811 Y60.968 E16.25261
G1 X73.386 Y61.456 F7800.000
G1 X78.723 Y61.456 F540.000 E16.66070
G1 X78.723 Y74.731 E17.67572
G1 X73.386 Y74.731 E18.08381
G1 X73.386 Y61.543 E19.09223
G1 X73.883 Y61.744 F7800.000
G1 F1800.000 E18.09223
G92 E0
G1 X61.096 Y78.722 F7800.000
G1 F1800.000 E1.00000
G1 X61.300 Y78.879 F540.000 E1.01970
G1 X61.909 Y79.672 E1.09615
G1 X62.291 Y80.596 E1.17260
G1 X62.422 Y81.588 E1.24906
G1 X62.291 Y82.579 E1.32551
G1 X61.909 Y83.503 E1.40197
G1 X61.300 Y84.296 E1.47842
G1 X60.507 Y84.905 E1.55487
G1 X59.583 Y85.287 E1.63133
G1 X58.592 Y85.418 E1.70778
G1 X57.600 Y85.287 E1.78423
G1 X56.915 Y85.003 E1.84099
G1 X56.677 Y84.905 E1.86069
G1 X55.883 Y84.296 E1.93714
G1 X55.275 Y83.503 E2.01359
G1 X54.892 Y82.579 E2.09005
G1 X54.761 Y81.588 E2.16650
G1 X54.892 Y80.596 E2.24296
G1 X55.275 Y79.672 E2.31941
G1 X55.883 Y78.879 E2.39586
G1 X56.677 Y78.270 E2.47232
G1 X57.362 Y77.986 E2.52907
G1 X57.600 Y77.888 E2.54877
