; generated by Slic3r 0.9.10b on 2014-02-07 at 20:05:01

; layer_height = 0.3
; perimeters = 3
; top_solid_layers = 3
; bottom_solid_layers = 3
; fill_density = 0.4
; perimeter_speed = 30
; infill_speed = 60
; travel_speed = 130
; nozzle_diameter = 0.5
; filament_diameter = 1.83
; extrusion_multiplier = 1
; perimeters extrusion width = 0.70mm
; infill extrusion width = 0.70mm
; solid infill extrusion width = 0.70mm
; top infill extrusion width = 0.70mm
; first layer extrusion width = 0.59mm

G21 ; set units to millimeters
M107
M190 S100 ; wait for bed temperature to be reached
M104 S230 ; set temperature
G28 ; home all axes
G1 Z5 F5000 ; lift nozzle
M109 S230 ; wait for temperature to be reached
G90 ; use absolute coordinates
G92 E0
M82 ; use absolute distances for extrusion
G1 F1800.000 E-1.00000
G92 E0
G1 Z0.350 F7800.000
G1 X50.531 Y8.870
G1 F1800.000 E1.00000
G1 X50.911 Y7.630 F540.000 E1.09917
G1 X51.511 Y6.500 E1.19699
G1 X52.331 Y5.500 E1.29588
G1 X53.331 Y4.680 E1.39476
G1 X54.461 Y4.080 E1.49259
G1 X55.701 Y3.700 E1.59175
G1 X56.981 Y3.580 E1.69006
G1 X103.011 Y3.580 E5.20965
G1 X104.291 Y3.700 E5.30795
G1 X105.531 Y4.080 E5.40712
G1 X106.661 Y4.680 E5.50494
G1 X107.661 Y5.500 E5.60383
G1 X108.481 Y6.500 E5.70271
G1 X109.081 Y7.630 E5.80054
G1 X109.461 Y8.870 E5.89970
G1 X109.581 Y10.150 E5.99801
G1 X109.581 Y137.150 E15.70880
G1 X109.411 Y138.650 E15.82423
G1 X108.901 Y140.070 E15.93960
G1 X108.081 Y141.330 E16.05455
G1 X106.991 Y142.380 E16.17028
G1 X90.321 Y155.080 E17.77268
G1 X89.101 Y155.820 E17.88178
G1 X87.761 Y156.270 E17.98987
G1 X86.341 Y156.420 E18.09905
G1 X73.641 Y156.420 E19.07013
G1 X72.221 Y156.270 E19.17931
G1 X70.871 Y155.810 E19.28836
G1 X69.651 Y155.080 E19.39707
G1 X52.991 Y142.380 E20.99887
G1 X51.911 Y141.330 E21.11404
G1 X51.091 Y140.070 E21.22899
G1 X50.581 Y138.650 E21.34436
G1 X50.411 Y137.150 E21.45979
G1 X50.411 Y10.150 E31.17059
G1 X50.523 Y8.956 E31.26230
G1 F1800.000 E30.26230
G92 E0
G1 X94.219 Y12.463 F7800.000
G1 F1800.000 E1.00000
G1 X100.706 Y12.463 F540.000 E1.49596
G1 X100.706 Y26.887 E2.59885
G1 X94.219 Y26.887 E3.09482
G1 X94.219 Y12.549 E4.19112
G1 X94.794 Y13.038 F7800.000
G1 X100.131 Y13.038 F540.000 E4.59921
G1 X100.131 Y26.312 E5.61423
G1 X94.794 Y26.312 E6.02232
G1 X94.794 Y13.124 E7.03074
G1 X95.292 Y13.325 F7800.000
G1 X66.574 Y12.463
G1 X66.574 Y26.887 F540.000 E8.13363
G1 X60.088 Y26.887 E8.62960
G1 X60.088 Y12.463 E9.73249
G1 X66.488 Y12.463 E10.22186
G1 X66.000 Y13.038 F7800.000
G1 X66.000 Y26.312 F540.000 E11.23688
G1 X60.663 Y26.312 E11.64497
G1 X60.663 Y13.038 E12.65999
G1 X65.914 Y13.038 E13.06149
G1 X65.712 Y13.535 F7800.000
G1 F1800.000 E12.06149
G92 E0
G1 X67.149 Y59.513 F7800.000
G1 F1800.000 E1.00000
G1 X67.149 Y75.087 F540.000 E2.19076
G1 X59.513 Y75.087 E2.77460
G1 X59.513 Y59.513 E3.96536
G1 X67.063 Y59.513 E4.54261
G1 X66.574 Y60.088 F7800.000
G1 X66.574 Y74.512 F540.000 E5.64550
G1 X60.088 Y74.512 E6.14147
G1 X60.088 Y60.088 E7.24436
G1 X66.488 Y60.088 E7.73373
G1 X66.000 Y60.663 F7800.000
G1 X66.000 Y73.937 F540.000 E8.74875
G1 X60.663 Y73.937 E9.15684
G1 X60.663 Y60.663 E10.17185
G1 X65.914 Y60.663 E10.57336
G1 X65.712 Y61.160 F7800.000
G1 X94.219 Y60.088
G1 X100.706 Y60.088 F540.000 E11.06932
G1 X100.706 Y74.512 E12.17221
G1 X94.219 Y74.512 E12.66818
G1 X94.219 Y60.174 E13.76447
G1 X94.794 Y60.663 F7800.000
G1 X100.131 Y60.663 F540.000 E14.17257
G1 X100.131 Y73.937 E15.18758
G1 X94.794 Y73.937 E15.59567
G1 X94.794 Y60.749 E16.60410
G1 X95.292 Y60.950 F7800.000
G1 F1800.000 E15.60410
G92 E0
G1 X81.915 Y78.270 F7800.000
G1 F1800.000 E1.00000
G1 X82.708 Y78.879 F540.000 E1.07645
G1 X82.865 Y79.084 E1.09615
G1 X83.317 Y79.672 E1.15291
G1 X83.700 Y80.596 E1.22936
G1 X83.830 Y81.588 E1.30582
G1 X83.700 Y82.579 E1.38227
G1 X83.317 Y83.503 E1.45872
G1 X82.708 Y84.296 E1.53518
G1 X82.119 Y84.748 E1.59193
G1 X81.915 Y84.905 E1.61163
G1 X80.991 Y85.287 E1.68808
G1 X80.000 Y85.418 E1.76454
G1 X79.009 Y85.287 E1.84099
G1 X78.085 Y84.905 E1.91744
G1 X77.292 Y84.296 E1.99390
G1 X77.135 Y84.091 E2.01359
G1 X76.683 Y83.503 E2.07035
G1 X76.300 Y82.579 E2.14680
G1 X76.170 Y81.588 E2.22326
G1 X76.203 Y81.332 E2.24296
G1 X76.300 Y80.596 E2.29971
G1 X76.683 Y79.672 E2.37617
G1 X77.292 Y78.879 E2.45262
G1 X77.881 Y78.427 E2.50937
G1 X78.085 Y78.270 E2.52907
G1 X79.009 Y77.888 E2.60552
G1 X80.000 Y77.757 E2.68198
G1 X80.991 Y77.888 E2.75843
G1 X81.835 Y78.237 E2.82829
G1 X81.625 Y78.772 F7800.000
G1 X82.299 Y79.289 F540.000 E2.89318
G1 X82.409 Y79.433 E2.90709
G1 X82.815 Y79.962 E2.95806
G1 X83.140 Y80.746 E3.02295
G1 X83.251 Y81.588 E3.08783
G1 X83.140 Y82.429 E3.15272
G1 X82.815 Y83.213 E3.21761
G1 X82.299 Y83.886 E3.28249
G1 X81.770 Y84.292 E3.33346
G1 X81.625 Y84.403 E3.34737
G1 X80.841 Y84.727 E3.41226
G1 X80.000 Y84.838 E3.47714
G1 X79.159 Y84.727 E3.54203
G1 X78.375 Y84.403 E3.60691
G1 X77.701 Y83.886 E3.67180
G1 X77.591 Y83.742 E3.68571
G1 X77.185 Y83.213 E3.73668
G1 X76.860 Y82.429 E3.80157
G1 X76.749 Y81.588 E3.86645
G1 X76.773 Y81.407 E3.88037
G1 X76.860 Y80.746 E3.93134
G1 X77.185 Y79.962 E3.99622
G1 X77.701 Y79.289 E4.06111
G1 X78.230 Y78.883 E4.11208
G1 X78.375 Y78.772 E4.12599
G1 X79.159 Y78.448 E4.19088
G1 X80.000 Y78.337 E4.25576
G1 X80.841 Y78.448 E4.32065
G1 X81.546 Y78.739 E4.37894
G1 X81.336 Y79.274 F7800.000
G1 X81.889 Y79.699 F540.000 E4.43226
G1 X81.953 Y79.783 E4.44039
G1 X82.313 Y80.252 E4.48557
G1 X82.580 Y80.896 E4.53889
G1 X82.671 Y81.588 E4.59220
G1 X82.657 Y81.693 E4.60034
G1 X82.580 Y82.279 E4.64552
G1 X82.313 Y82.923 E4.69884
G1 X81.889 Y83.476 E4.75215
G1 X81.420 Y83.836 E4.79734
G1 X81.336 Y83.901 E4.80547
G1 X80.691 Y84.168 E4.85879
G1 X80.000 Y84.259 E4.91210
G1 X79.309 Y84.168 E4.96542
G1 X78.664 Y83.901 E5.01873
G1 X78.111 Y83.476 E5.07205
G1 X78.047 Y83.392 E5.08018
G1 X77.687 Y82.923 E5.12537
G1 X77.420 Y82.279 E5.17868
G1 X77.329 Y81.588 E5.23200
G1 X77.343 Y81.482 E5.24013
G1 X77.420 Y80.896 E5.28531
G1 X77.687 Y80.252 E5.33863
G1 X78.111 Y79.699 E5.39195
G1 X78.580 Y79.339 E5.43713
G1 X78.664 Y79.274 E5.44526
G1 X79.309 Y79.007 E5.49858
G1 X80.000 Y78.916 E5.55189
G1 X80.691 Y79.007 E5.60521
G1 X81.256 Y79.241 E5.65194
G1 X81.310 Y79.848 F7800.000
G1 F1800.000 E4.65194
G92 E0
G1 X87.787 Y97.613 F7800.000
G1 F1800.000 E1.00000
G1 X87.787 Y125.887 F540.000 E3.16184
G1 X72.213 Y125.887 E4.35261
G1 X72.213 Y97.613 E6.51445
G1 X87.700 Y97.613 E7.69862
G1 X87.212 Y98.188 F7800.000
G1 X87.212 Y125.312 F540.000 E9.77259
G1 X72.788 Y125.312 E10.87548
G1 X72.788 Y98.188 E12.94945
G1 X87.126 Y98.188 E14.04575
G1 X86.637 Y98.763 F7800.000
G1 X86.637 Y124.737 F378.000 E16.03185
G1 X73.363 Y124.737 E17.04686
G1 X73.363 Y98.763 E19.03296
G1 X86.551 Y98.763 E20.04139
G1 X86.350 Y99.260 F7800.000
G1 F1800.000 E19.04139
G92 E0
G1 X80.991 Y138.213 F7800.000
G1 F1800.000 E1.00000
G1 X81.915 Y138.595 F540.000 E1.07645
G1 X82.504 Y139.047 E1.13321
G1 X82.708 Y139.204 E1.15291
G1 X83.317 Y139.997 E1.22936
G1 X83.700 Y140.921 E1.30581
G1 X83.830 Y141.912 E1.38227
G1 X83.700 Y142.904 E1.45872
G1 X83.317 Y143.828 E1.53518
G1 X82.708 Y144.621 E1.61163
G1 X81.915 Y145.230 E1.68808
G1 X80.991 Y145.612 E1.76454
G1 X80.255 Y145.709 E1.82129
G1 X80.000 Y145.743 E1.84099
G1 X79.009 Y145.612 E1.91744
G1 X78.085 Y145.230 E1.99390
G1 X77.496 Y144.778 E2.05065
G1 X77.292 Y144.621 E2.07035
G1 X76.683 Y143.828 E2.14680
G1 X76.300 Y142.904 E2.22326
G1 X76.170 Y141.912 E2.29971
G1 X76.300 Y140.921 E2.37616
G1 X76.683 Y139.997 E2.45262
G1 X77.292 Y139.204 E2.52907
G1 X78.085 Y138.595 E2.60553
G1 X79.009 Y138.213 E2.68198
G1 X80.000 Y138.082 E2.75843
G1 X80.906 Y138.202 E2.82829
G1 X80.841 Y138.773 F7800.000
G1 X81.625 Y139.097 F540.000 E2.89318
G1 X82.154 Y139.503 E2.94415
G1 X82.299 Y139.614 E2.95806
G1 X82.815 Y140.287 E3.02295
G1 X83.140 Y141.071 E3.08783
G1 X83.251 Y141.912 E3.15272
G1 X83.140 Y142.754 E3.21760
G1 X82.815 Y143.538 E3.28249
G1 X82.299 Y144.211 E3.34737
G1 X81.625 Y144.728 E3.41226
G1 X80.841 Y145.052 E3.47714
G1 X80.180 Y145.139 E3.52811
G1 X80.000 Y145.163 E3.54203
G1 X79.159 Y145.052 E3.60691
G1 X78.375 Y144.728 E3.67180
G1 X77.846 Y144.322 E3.72277
G1 X77.701 Y144.211 E3.73668
G1 X77.185 Y143.538 E3.80157
G1 X76.860 Y142.754 E3.86645
G1 X76.836 Y142.573 E3.88037
G1 X76.749 Y141.912 E3.93134
G1 X76.860 Y141.071 E3.99622
G1 X77.185 Y140.287 E4.06111
G1 X77.701 Y139.614 E4.12599
G1 X78.375 Y139.097 E4.19088
G1 X79.159 Y138.773 E4.25576
G1 X80.000 Y138.662 E4.32065
G1 X80.756 Y138.761 E4.37894
G1 X80.691 Y139.332 F7800.000
G1 X81.336 Y139.599 F540.000 E4.43226
G1 X81.804 Y139.959 E4.47744
G1 X81.889 Y140.024 E4.48557
G1 X82.313 Y140.577 E4.53889
G1 X82.580 Y141.221 E4.59220
G1 X82.671 Y141.912 E4.64552
G1 X82.580 Y142.604 E4.69884
G1 X82.313 Y143.248 E4.75215
G1 X81.889 Y143.801 E4.80547
G1 X81.336 Y144.226 E4.85879
G1 X80.691 Y144.493 E4.91210
G1 X80.105 Y144.570 E4.95729
G1 X80.000 Y144.584 E4.96542
G1 X79.309 Y144.493 E5.01873
G1 X78.664 Y144.226 E5.07205
G1 X78.196 Y143.866 E5.11723
G1 X78.111 Y143.801 E5.12537
G1 X77.687 Y143.248 E5.17868
G1 X77.420 Y142.604 E5.23200
G1 X77.406 Y142.498 E5.24013
G1 X77.329 Y141.912 E5.28531
G1 X77.420 Y141.221 E5.33863
G1 X77.687 Y140.577 E5.39195
G1 X78.111 Y140.024 E5.44526
G1 X78.664 Y139.599 E5.49858
G1 X79.309 Y139.332 E5.55189
G1 X80.000 Y139.241 E5.60521
G1 X80.606 Y139.321 E5.65194
G1 X80.816 Y139.893 F7800.000
G1 F1800.000 E4.65194
G92 E0
G1 X84.913 Y135.713 F7800.000
G1 F1800.000 E1.00000
G1 X84.913 Y148.413 F540.000 E1.97108
G1 X75.087 Y148.413 E2.72248
G1 X75.087 Y135.713 E3.69356
G1 X58.418 Y135.713 E4.96810
G1 X58.418 Y11.587 E14.45922
G1 X59.513 Y11.587 E14.54300
G1 X59.513 Y27.462 E15.75685
G1 X67.149 Y27.462 E16.34068
G1 X67.149 Y11.587 E17.55453
G1 X93.645 Y11.587 E19.58047
G1 X93.645 Y27.462 E20.79432
G1 X101.582 Y27.462 E21.40125
G1 X101.582 Y59.513 E23.85203
G1 X93.645 Y59.513 E24.45896
G1 X93.645 Y75.087 E25.64972
G1 X101.582 Y75.087 E26.25665
G1 X101.582 Y135.713 E30.89236
G1 X85.000 Y135.713 E32.16032
G1 X85.488 Y136.288 F7800.000
G1 X85.488 Y148.988 F540.000 E33.13140
G1 X74.512 Y148.988 E33.97067
G1 X74.512 Y136.288 E34.94175
G1 X57.843 Y136.288 E36.21629
G1 X57.843 Y11.012 E45.79528
G1 X102.157 Y11.012 E49.18363
G1 X102.157 Y136.288 E58.76262
G1 X85.574 Y136.288 E60.03058
G1 X86.063 Y136.863 F7800.000
G1 X86.063 Y149.563 F378.000 E61.00166
G1 X73.937 Y149.563 E61.92880
G1 X73.937 Y136.863 E62.89988
G1 X57.269 Y136.863 E64.17442
G1 X57.269 Y10.437 E73.84129
G1 X102.731 Y10.437 E77.31751
G1 X102.731 Y136.863 E86.98438
G1 X86.149 Y136.863 E88.25233
G1 X85.488 Y136.863 F7800.000
G1 X84.340 Y143.179
G1 X84.497 Y143.337 F1080.000 E88.26936
G1 X84.497 Y144.150 E88.33159
G1 X83.987 Y143.639 E88.38683
G1 X83.633 Y144.099 E88.43121
G1 X84.497 Y144.963 E88.52466
G1 X84.497 Y145.776 E88.58689
G1 X83.280 Y144.560 E88.71855
G1 X82.904 Y144.996 E88.76267
G1 X84.497 Y146.589 E88.93510
G1 X84.497 Y147.403 E88.99733
G1 X82.443 Y145.349 E89.21956
G1 X81.948 Y145.667 E89.26460
G1 X84.278 Y147.997 E89.51677
G1 X83.465 Y147.997 E89.57900
G1 X81.373 Y145.905 E89.80539
G1 X80.722 Y146.068 E89.85670
G1 X82.652 Y147.997 E90.06549
G1 X81.838 Y147.997 E90.12772
G1 X80.004 Y146.162 E90.32626
G1 X79.068 Y146.040 E90.39845
G1 X81.025 Y147.997 E90.61022
G1 X80.212 Y147.997 E90.67245
G1 X77.589 Y145.374 E90.95634
G1 X76.539 Y144.324 F7800.000
G1 X75.503 Y143.288 F1080.000 E91.06844
G1 X75.503 Y144.101 E91.13067
G1 X79.399 Y147.997 E91.55224
G1 X78.585 Y147.997 E91.61447
G1 X75.503 Y144.915 E91.94804
G1 X75.503 Y145.728 E92.01027
G1 X77.772 Y147.997 E92.25584
G1 X76.959 Y147.997 E92.31807
G1 X75.503 Y146.541 E92.47563
G1 X75.503 Y147.354 E92.53786
G1 X76.146 Y147.997 E92.60742
G1 X75.677 Y142.649 F7800.000
G1 X75.671 Y142.643 F360.000 E92.60804
G1 X75.695 Y141.040 F7800.000
G1 X75.671 Y141.017 F360.000 E92.61060
G1 X75.503 Y140.035 F7800.000
G1 X75.857 Y140.389 F1080.000 E92.64890
G1 X76.210 Y139.929 E92.69325
G1 X75.503 Y139.222 E92.76973
G1 X75.503 Y138.409 E92.83191
G1 X76.563 Y139.469 E92.94658
G1 X76.916 Y139.009 E92.99093
G1 X75.503 Y137.595 E93.14377
G1 X75.503 Y136.782 E93.20595
G1 X77.353 Y138.632 E93.40600
G1 X77.813 Y138.279 E93.45035
G1 X75.503 Y135.969 E93.70015
G1 X74.831 Y135.297 F7800.000
G1 X58.834 Y119.300 F1080.000 E95.42996
G1 X58.834 Y120.113 E95.49214
G1 X74.018 Y135.297 E97.13401
G1 X73.205 Y135.297 E97.19619
G1 X58.834 Y120.927 E98.75012
G1 X58.834 Y121.740 E98.81230
G1 X72.391 Y135.297 E100.27829
G1 X71.578 Y135.297 E100.34047
G1 X58.834 Y122.553 E101.71853
G1 X58.834 Y123.366 E101.78071
G1 X70.765 Y135.297 E103.07083
G1 X69.952 Y135.297 E103.13301
G1 X58.834 Y124.180 E104.33518
G1 X58.834 Y124.993 E104.39737
G1 X69.138 Y135.297 E105.51160
G1 X68.325 Y135.297 E105.57379
G1 X58.834 Y125.806 E106.60008
G1 X58.834 Y126.619 E106.66227
G1 X67.512 Y135.297 E107.60063
G1 X66.699 Y135.297 E107.66281
G1 X58.834 Y127.433 E108.51323
G1 X58.834 Y128.246 E108.57541
G1 X65.885 Y135.297 E109.33790
G1 X65.072 Y135.297 E109.40008
G1 X58.834 Y129.059 E110.07463
G1 X58.834 Y129.872 E110.13681
G1 X64.259 Y135.297 E110.72341
G1 X63.446 Y135.297 E110.78560
G1 X58.834 Y130.685 E111.28426
G1 X58.834 Y131.499 E111.34645
G1 X62.633 Y135.297 E111.75718
G1 X61.819 Y135.297 E111.81936
G1 X58.834 Y132.312 E112.14215
G1 X58.834 Y133.125 E112.20433
G1 X61.006 Y135.297 E112.43918
G1 X60.193 Y135.297 E112.50137
G1 X58.834 Y133.938 E112.64828
G1 X58.834 Y134.752 E112.71046
G1 X59.380 Y135.297 E112.76944
G1 X71.797 Y125.757 F7800.000
G1 X58.834 Y112.794 F1080.000 E114.17116
G1 X58.834 Y113.608 E114.23335
G1 X84.497 Y139.270 E117.00839
G1 X84.497 Y140.084 E117.07057
G1 X58.834 Y114.421 E119.84561
G1 X58.834 Y115.234 E119.90779
G1 X81.624 Y138.024 E122.37221
G1 X80.517 Y137.730 E122.45980
G1 X58.834 Y116.047 E124.80449
G1 X58.834 Y116.861 E124.86667
G1 X79.678 Y137.705 E127.12064
G1 X78.960 Y137.799 E127.17606
G1 X58.834 Y117.674 E129.35232
G1 X58.834 Y118.487 E129.41451
G1 X78.373 Y138.025 E131.52730
G1 X72.343 Y126.303 F7800.000
G1 X84.497 Y138.457 F1080.000 E132.84159
G1 X84.497 Y137.644 E132.90377
G1 X73.156 Y126.303 E134.13012
G1 X73.969 Y126.303 E134.19230
G1 X84.497 Y136.831 E135.33071
G1 X84.497 Y136.017 E135.39290
G1 X74.783 Y126.303 E136.44337
G1 X75.596 Y126.303 E136.50555
G1 X84.590 Y135.297 E137.47812
G1 X85.403 Y135.297 E137.54030
G1 X76.409 Y126.303 E138.51286
G1 X77.222 Y126.303 E138.57505
G1 X86.216 Y135.297 E139.54761
G1 X87.029 Y135.297 E139.60979
G1 X78.035 Y126.303 E140.58236
G1 X78.849 Y126.303 E140.64454
G1 X87.843 Y135.297 E141.61711
G1 X88.656 Y135.297 E141.67929
G1 X79.662 Y126.303 E142.65185
G1 X80.475 Y126.303 E142.71403
G1 X89.469 Y135.297 E143.68660
G1 X90.282 Y135.297 E143.74878
G1 X81.288 Y126.303 E144.72135
G1 X82.102 Y126.303 E144.78353
G1 X91.096 Y135.297 E145.75609
G1 X91.909 Y135.297 E145.81827
G1 X82.915 Y126.303 E146.79084
G1 X83.728 Y126.303 E146.85302
G1 X92.722 Y135.297 E147.82559
G1 X93.535 Y135.297 E147.88777
G1 X84.541 Y126.303 E148.86033
G1 X85.354 Y126.303 E148.92252
G1 X94.348 Y135.297 E149.89508
G1 X95.162 Y135.297 E149.95726
G1 X86.168 Y126.303 E150.92983
G1 X86.981 Y126.303 E150.99201
G1 X95.975 Y135.297 E151.96457
G1 X96.788 Y135.297 E152.02676
G1 X87.794 Y126.303 E152.99932
G1 X88.203 Y125.899 E153.04329
G1 X97.601 Y135.297 E154.05959
G1 X98.415 Y135.297 E154.12177
G1 X88.203 Y125.085 E155.22600
G1 X88.203 Y124.272 E155.28818
G1 X99.228 Y135.297 E156.48036
G1 X100.041 Y135.297 E156.54254
G1 X88.203 Y123.459 E157.82265
G1 X88.203 Y122.646 E157.88483
G1 X100.854 Y135.297 E159.25288
G1 X101.166 Y134.795 E159.29804
