; generated by Slic3r 0.9.10b on 2014-02-01 at 16:38:50

; layer_height = 0.3
; perimeters = 3
; top_solid_layers = 3
; bottom_solid_layers = 3
; fill_density = 0.4
; perimeter_speed = 30
; infill_speed = 60
; travel_speed = 130
; nozzle_diameter = 0.5
; filament_diameter = 1.81
; extrusion_multiplier = 1
; perimeters extrusion width = 0.70mm
; infill extrusion width = 0.70mm
; solid infill extrusion width = 0.70mm
; top infill extrusion width = 0.70mm
; first layer extrusion width = 0.70mm

G21 ; set units to millimeters
M107
M190 S80 ; wait for bed temperature to be reached
M104 S230 ; set temperature
G28 ; home all axes
G1 Z5 F5000 ; lift nozzle
M109 S230 ; wait for temperature to be reached
G90 ; use absolute coordinates
G92 E0
M82 ; use absolute distances for extrusion
G1 F1800.000 E-1.00000
G92 E0
G1 Z0.350 F7800.000
G1 X59.495 Y49.890
G1 F1800.000 E1.00000
G1 X60.505 Y49.060 F540.000 E1.11684
G1 X61.655 Y48.450 E1.23320
G1 X62.905 Y48.070 E1.34997
G1 X64.205 Y47.940 E1.46674
G1 X95.785 Y47.940 E4.28935
G1 X97.085 Y48.070 E4.40613
G1 X98.335 Y48.450 E4.52290
G1 X99.485 Y49.060 E4.63925
G1 X100.495 Y49.890 E4.75610
G1 X101.325 Y50.900 E4.87294
G1 X101.935 Y52.050 E4.98929
G1 X102.315 Y53.300 E5.10607
G1 X102.445 Y54.600 E5.22284
G1 X102.445 Y105.400 E9.76333
G1 X102.315 Y106.700 E9.88010
G1 X101.935 Y107.950 E9.99688
G1 X101.325 Y109.100 E10.11323
G1 X100.495 Y110.110 E10.23007
G1 X99.485 Y110.940 E10.34692
G1 X98.335 Y111.550 E10.46327
G1 X97.085 Y111.930 E10.58004
G1 X95.785 Y112.060 E10.69682
G1 X64.205 Y112.060 E13.51943
G1 X62.905 Y111.930 E13.63620
G1 X61.655 Y111.550 E13.75297
G1 X60.505 Y110.940 E13.86933
G1 X59.495 Y110.110 E13.98617
G1 X58.665 Y109.100 E14.10302
G1 X58.055 Y107.950 E14.21937
G1 X57.675 Y106.700 E14.33614
G1 X57.545 Y105.400 E14.45291
G1 X57.545 Y54.600 E18.99340
G1 X57.675 Y53.300 E19.11018
G1 X58.055 Y52.050 E19.22695
G1 X58.665 Y50.900 E19.34330
G1 X59.432 Y49.966 E19.45134
G1 F1800.000 E18.45134
G92 E0
G1 X72.007 Y65.657 F7800.000
G1 F1800.000 E1.00000
G1 X87.993 Y65.657 F540.000 E2.42877
G1 X87.993 Y94.343 E4.99266
G1 X72.007 Y94.343 E6.42143
G1 X72.007 Y65.756 E8.97652
G1 X72.664 Y66.314 F7800.000
G1 X87.336 Y66.314 F540.000 E10.28783
G1 X87.336 Y93.686 E12.73426
G1 X72.664 Y93.686 E14.04557
G1 X72.664 Y66.413 E16.48320
G1 X73.321 Y66.971 F7800.000
G1 X86.679 Y66.971 F378.000 E17.67705
G1 X86.679 Y93.029 E20.00602
G1 X73.321 Y93.029 E21.19988
G1 X73.321 Y67.070 E23.52004
G1 X73.891 Y67.300 F7800.000
G1 X76.770 Y64.180
G1 X83.230 Y64.180 F540.000 E24.09747
G1 X83.230 Y56.243 E24.80692
G1 X94.145 Y56.243 E25.78247
G1 X94.145 Y103.757 E30.02931
G1 X65.855 Y103.757 E32.55783
G1 X65.855 Y56.243 E36.80467
G1 X76.770 Y56.243 E37.78021
G1 X76.770 Y64.082 E38.48085
G1 X77.427 Y63.523 F7800.000
G1 X82.573 Y63.523 F540.000 E38.94082
G1 X82.573 Y55.586 E39.65027
G1 X94.802 Y55.586 E40.74328
G1 X94.802 Y104.414 E45.10758
G1 X65.198 Y104.414 E47.75356
G1 X65.198 Y55.586 E52.11786
G1 X77.427 Y55.586 E53.21086
G1 X77.427 Y63.425 E53.91150
G1 X78.084 Y62.866 F7800.000
G1 X81.916 Y62.866 F378.000 E54.25401
G1 X81.916 Y54.929 E54.96346
G1 X95.459 Y54.929 E56.17393
G1 X95.459 Y105.071 E60.65569
G1 X64.541 Y105.071 E63.41912
G1 X64.541 Y54.929 E67.90088
G1 X78.084 Y54.929 E69.11135
G1 X78.084 Y62.767 E69.81199
G1 X78.084 Y63.523 F7800.000
G1 X84.117 Y65.181
G1 X83.706 Y64.770 F1080.000 E69.86420
G1 X83.706 Y63.836 E69.94810
G1 X85.051 Y65.181 E70.11895
G1 X85.985 Y65.181 E70.20285
G1 X83.706 Y62.902 E70.49236
G1 X83.706 Y61.968 E70.57626
G1 X86.919 Y65.181 E70.98442
G1 X87.853 Y65.181 F7800.000
G1 X83.706 Y61.034 F1080.000 E71.51122
G1 X83.706 Y60.100 E71.59512
G1 X93.669 Y70.062 E72.86071
G1 X93.669 Y69.128 E72.94461
G1 X83.706 Y59.166 E74.21020
G1 X83.706 Y58.232 E74.29410
G1 X93.669 Y68.195 E75.55969
G1 X93.669 Y67.261 E75.64359
G1 X83.706 Y57.298 E76.90918
G1 X84.061 Y56.719 F7800.000
G1 X93.669 Y66.327 F1080.000 E78.12975
G1 X93.669 Y65.393 F7800.000
G1 X84.995 Y56.719 F1080.000 E79.23166
G1 X85.929 Y56.719 E79.31556
G1 X93.669 Y64.459 E80.29883
G1 X93.669 Y63.525 E80.38273
G1 X86.863 Y56.719 E81.24734
G1 X87.797 Y56.719 E81.33124
G1 X93.669 Y62.591 E82.07721
G1 X93.669 Y61.657 E82.16111
G1 X88.731 Y56.719 E82.78843
G1 X89.665 Y56.719 E82.87232
G1 X93.669 Y60.723 E83.38099
G1 X93.669 Y59.789 E83.46489
G1 X90.599 Y56.719 E83.85491
G1 X91.532 Y56.719 E83.93881
G1 X93.669 Y58.855 E84.21018
G1 X93.669 Y57.921 E84.29408
G1 X92.466 Y56.719 E84.44680
G1 X93.400 Y56.719 E84.53069
G1 X93.669 Y56.987 E84.56477
G1 X88.469 Y65.797 F7800.000
G1 X93.669 Y70.996 F1080.000 E85.22532
G1 X93.669 Y71.930 E85.30922
G1 X88.469 Y66.731 E85.96978
G1 X88.469 Y67.665 E86.05368
G1 X93.669 Y72.864 E86.71424
G1 X93.669 Y73.798 E86.79814
G1 X88.469 Y68.599 E87.45870
G1 X88.469 Y69.533 E87.54259
G1 X93.669 Y74.732 E88.20315
G1 X93.669 Y75.666 E88.28705
G1 X88.469 Y70.467 E88.94761
G1 X88.469 Y71.400 E89.03151
G1 X93.669 Y76.600 E89.69207
G1 X93.669 Y77.534 E89.77596
G1 X88.469 Y72.334 E90.43652
G1 X88.469 Y73.268 E90.52042
G1 X93.669 Y78.468 E91.18098
G1 X93.669 Y79.402 E91.26488
G1 X88.469 Y74.202 E91.92544
G1 X88.469 Y75.136 E92.00934
G1 X93.669 Y80.336 E92.66989
G1 X93.669 Y81.270 E92.75379
G1 X88.469 Y76.070 E93.41435
G1 X88.469 Y77.004 E93.49825
G1 X93.669 Y82.204 E94.15881
G1 X93.669 Y83.138 E94.24271
G1 X88.469 Y77.938 E94.90327
G1 X88.469 Y78.872 E94.98716
G1 X93.669 Y84.072 E95.64772
G1 X93.669 Y85.006 E95.73162
G1 X88.469 Y79.806 E96.39218
G1 X88.469 Y80.740 E96.47608
G1 X93.669 Y85.940 E97.13664
G1 X93.669 Y86.873 E97.22053
G1 X88.469 Y81.674 E97.88109
G1 X88.469 Y82.608 E97.96499
G1 X93.669 Y87.807 E98.62555
G1 X93.669 Y88.741 E98.70945
G1 X88.469 Y83.542 E99.37001
G1 X88.469 Y84.476 E99.45391
G1 X93.669 Y89.675 E100.11447
G1 X93.669 Y90.609 E100.19836
G1 X88.469 Y85.410 E100.85892
G1 X88.469 Y86.344 E100.94282
G1 X93.669 Y91.543 E101.60338
G1 X93.669 Y92.477 E101.68728
G1 X88.469 Y87.278 E102.34784
G1 X88.469 Y88.212 E102.43173
G1 X93.669 Y93.411 E103.09229
G1 X93.669 Y94.345 E103.17619
G1 X88.469 Y89.145 E103.83675
G1 X88.469 Y90.079 E103.92065
G1 X93.669 Y95.279 E104.58121
G1 X93.669 Y96.213 E104.66510
G1 X88.469 Y91.013 E105.32566
G1 X88.469 Y91.947 E105.40956
G1 X93.669 Y97.147 E106.07012
G1 X93.669 Y98.081 E106.15402
G1 X88.469 Y92.881 E106.81458
G1 X88.469 Y93.815 E106.89848
G1 X93.669 Y99.015 E107.55904
G1 X93.669 Y99.949 E107.64293
G1 X88.469 Y94.749 E108.30349
G1 X87.605 Y94.819 E108.38137
G1 X93.669 Y100.883 E109.15171
G1 X93.669 Y101.817 E109.23561
G1 X86.671 Y94.819 E110.12460
G1 X85.737 Y94.819 E110.20850
G1 X93.669 Y102.751 E111.21614
G1 X93.265 Y103.281 E111.27601
G1 X84.803 Y94.819 E112.35104
G1 X83.869 Y94.819 E112.43494
G1 X92.331 Y103.281 E113.50997
G1 X91.397 Y103.281 E113.59387
G1 X82.935 Y94.819 E114.66890
G1 X82.001 Y94.819 E114.75279
G1 X90.463 Y103.281 E115.82782
G1 X89.529 Y103.281 E115.91172
G1 X81.067 Y94.819 E116.98675
G1 X80.133 Y94.819 E117.07065
G1 X88.595 Y103.281 E118.14568
G1 X87.661 Y103.281 E118.22958
G1 X79.199 Y94.819 E119.30461
G1 X78.265 Y94.819 E119.38850
G1 X86.727 Y103.281 E120.46353
G1 X85.793 Y103.281 E120.54743
G1 X77.331 Y94.819 E121.62246
G1 X76.397 Y94.819 E121.70636
G1 X84.860 Y103.281 E122.78139
G1 X83.926 Y103.281 E122.86529
G1 X75.463 Y94.819 E123.94032
G1 X74.530 Y94.819 E124.02421
G1 X82.992 Y103.281 E125.09924
G1 X82.058 Y103.281 E125.18314
G1 X73.596 Y94.819 E126.25817
G1 X72.662 Y94.819 E126.34207
G1 X81.124 Y103.281 E127.41710
G1 X71.728 Y94.819 F7800.000
G1 X80.190 Y103.281 F1080.000 E128.49213
G1 X79.256 Y103.281 E128.57603
G1 X66.331 Y90.357 E130.21795
G1 X66.331 Y91.291 E130.30185
G1 X78.322 Y103.281 E131.82513
G1 X77.388 Y103.281 E131.90902
G1 X66.331 Y92.225 E133.31365
G1 X66.331 Y93.158 E133.39755
G1 X76.454 Y103.281 E134.68352
G1 X75.520 Y103.281 E134.76742
G1 X66.331 Y94.092 E135.93475
G1 X66.331 Y95.026 E136.01864
G1 X74.586 Y103.281 E137.06732
G1 X73.652 Y103.281 E137.15122
G1 X66.331 Y95.960 E138.08125
G1 X66.331 Y96.894 E138.16515
G1 X72.718 Y103.281 E138.97652
G1 X71.784 Y103.281 E139.06042
G1 X66.331 Y97.828 E139.75315
G1 X66.331 Y98.762 E139.83705
G1 X70.850 Y103.281 E140.41113
G1 X69.916 Y103.281 E140.49502
G1 X66.331 Y99.696 E140.95045
G1 X66.331 Y100.630 E141.03435
G1 X68.982 Y103.281 E141.37113
G1 X68.048 Y103.281 E141.45503
G1 X66.331 Y101.564 E141.67316
G1 X66.331 Y102.498 E141.75706
G1 X67.115 Y103.281 E141.85654
G1 X71.531 Y94.622 F7800.000
G1 X66.331 Y89.423 F1080.000 E142.51710
G1 X66.331 Y88.489 E142.60100
G1 X71.531 Y93.688 E143.26156
G1 X71.531 Y92.754 E143.34545
G1 X66.331 Y87.555 E144.00601
G1 X66.331 Y86.621 E144.08991
G1 X71.531 Y91.820 E144.75047
G1 X71.531 Y90.886 E144.83437
G1 X66.331 Y85.687 E145.49493
G1 X66.331 Y84.753 E145.57882
G1 X71.531 Y89.953 E146.23938
G1 X71.531 Y89.019 E146.32328
G1 X66.331 Y83.819 E146.98384
G1 X66.331 Y82.885 E147.06774
G1 X71.531 Y88.085 E147.72830
G1 X71.531 Y87.151 E147.81219
G1 X66.331 Y81.951 E148.47275
G1 X66.331 Y81.017 E148.55665
G1 X71.531 Y86.217 E149.21721
G1 X71.531 Y85.283 E149.30111
G1 X66.331 Y80.083 E149.96167
G1 X66.331 Y79.149 E150.04557
G1 X71.531 Y84.349 E150.70612
G1 X71.531 Y83.415 E150.79002
G1 X66.331 Y78.215 E151.45058
G1 X66.331 Y77.281 E151.53448
G1 X71.531 Y82.481 E152.19504
G1 X71.531 Y81.547 E152.27894
G1 X66.331 Y76.347 E152.93950
G1 X66.331 Y75.413 E153.02339
G1 X71.531 Y80.613 E153.68395
G1 X71.531 Y79.679 E153.76785
G1 X66.331 Y74.480 E154.42841
G1 X66.331 Y73.546 E154.51231
G1 X71.531 Y78.745 E155.17287
G1 X71.531 Y77.811 E155.25676
G1 X66.331 Y72.612 E155.91732
G1 X66.331 Y71.678 E156.00122
G1 X71.531 Y76.877 E156.66178
G1 X71.531 Y75.943 E156.74568
G1 X66.331 Y70.744 E157.40624
G1 X66.331 Y69.810 E157.49014
G1 X71.531 Y75.009 E158.15070
G1 X71.531 Y74.075 E158.23459
G1 X66.331 Y68.876 E158.89515
G1 X66.331 Y67.942 E158.97905
G1 X71.531 Y73.141 E159.63961
G1 X71.531 Y72.208 E159.72351
G1 X66.331 Y67.008 E160.38407
G1 X66.331 Y66.074 E160.46796
G1 X71.531 Y71.274 E161.12852
G1 X71.531 Y70.340 E161.21242
G1 X66.331 Y65.140 E161.87298
G1 X66.331 Y64.206 E161.95688
G1 X71.531 Y69.406 E162.61744
G1 X71.531 Y68.472 E162.70134
G1 X66.331 Y63.272 E163.36189
G1 X66.331 Y62.338 E163.44579
G1 X71.531 Y67.538 E164.10635
G1 X71.531 Y66.604 E164.19025
G1 X66.331 Y61.404 E164.85081
G1 X66.331 Y60.470 E164.93471
G1 X71.531 Y65.670 E165.59527
G1 X71.976 Y65.181 E165.65466
G1 X66.331 Y59.536 E166.37176
G1 X66.331 Y58.602 E166.45566
G1 X72.910 Y65.181 E167.29141
G1 X73.844 Y65.181 E167.37530
G1 X66.331 Y57.668 E168.32970
G1 X66.331 Y56.735 E168.41360
G1 X74.778 Y65.181 E169.48665
G1 X75.712 Y65.181 E169.57055
G1 X67.250 Y56.719 E170.64558
G1 X68.184 Y56.719 E170.72948
G1 X76.294 Y64.829 E171.75975
G1 X76.294 Y63.895 E171.84365
G1 X69.118 Y56.719 E172.75527
G1 X70.052 Y56.719 E172.83917
G1 X76.294 Y62.961 E173.63214
G1 X76.294 Y62.027 E173.71604
G1 X70.986 Y56.719 E174.39036
G1 X71.920 Y56.719 E174.47426
G1 X76.294 Y61.093 E175.02994
G1 X76.294 Y60.159 E175.11383
G1 X72.854 Y56.719 E175.55086
G1 X73.787 Y56.719 E175.63476
G1 X76.294 Y59.225 E175.95313
G1 X76.294 Y58.291 E176.03703
G1 X74.721 Y56.719 E176.23676
G1 X75.655 Y56.719 E176.32065
G1 X76.294 Y57.357 E176.40173
G1 X77.378 Y64.979 F7800.000
G1 X77.257 Y64.859 F360.000 E176.41700
G1 X78.191 Y64.859 E176.50090
G1 X78.312 Y64.979 E176.51618
G1 X79.125 Y64.859 E176.59007
G1 X79.246 Y64.979 E176.60534
G1 X80.059 Y64.859 E176.67923
G1 X80.179 Y64.979 E176.69451
G1 X80.993 Y64.859 E176.76840
G1 X81.113 Y64.979 E176.78367
G1 X81.927 Y64.859 E176.85756
G1 X82.047 Y64.979 E176.87284
G1 X82.861 Y64.859 E176.94673
G1 X82.981 Y64.979 E176.96200
M106 S149
G1 F1800.000 E175.96200
G92 E0
G1 Z0.650 F7800.000
G1 X87.986 Y65.664
G1 F1800.000 E1.00000
G1 X87.986 Y94.336 F1800.000 E3.18800
G1 X72.014 Y94.336 E4.40687
G1 X72.014 Y65.664 E6.59487
G1 X87.888 Y65.664 E7.80625
G1 X87.332 Y66.318 F7800.000
G1 X87.332 Y93.682 F1800.000 E9.89436
G1 X72.668 Y93.682 E11.01334
G1 X72.668 Y66.318 E13.10145
G1 X87.234 Y66.318 E14.21294
G1 X86.677 Y66.973 F7800.000
G1 X86.677 Y93.027 F1260.000 E16.20116
G1 X73.323 Y93.027 E17.22025
G1 X73.323 Y66.973 E19.20847
G1 X86.579 Y66.973 E20.22007
G1 X86.350 Y67.540 F7800.000
G1 F1800.000 E19.22007
G92 E0
G1 X83.224 Y64.174 F7800.000
G1 F1800.000 E1.00000
G1 X83.224 Y56.236 F1800.000 E1.60571
G1 X93.989 Y56.236 E2.42719
G1 X93.989 Y103.764 E6.05403
G1 X66.011 Y103.764 E8.18900
G1 X66.011 Y56.236 E11.81583
G1 X76.776 Y56.236 E12.63732
G1 X76.776 Y64.174 E13.24303
G1 X83.126 Y64.174 E13.72755
G1 X82.569 Y63.519 F7800.000
G1 X82.569 Y55.582 F1800.000 E14.33326
G1 X94.643 Y55.582 E15.25463
G1 X94.643 Y104.418 E18.98135
G1 X65.357 Y104.418 E21.21621
G1 X65.357 Y55.582 E24.94294
G1 X77.431 Y55.582 E25.86431
G1 X77.431 Y63.519 E26.47002
G1 X82.471 Y63.519 E26.85465
G1 X81.915 Y62.865 F7800.000
G1 X81.915 Y54.927 F1260.000 E27.46036
G1 X95.298 Y54.927 E28.48162
G1 X95.298 Y105.073 E32.30824
G1 X64.702 Y105.073 E34.64299
G1 X64.702 Y54.927 E38.46960
G1 X78.085 Y54.927 E39.49086
G1 X78.085 Y62.865 E40.09658
G1 X81.817 Y62.865 E40.38132
G1 X82.569 Y62.865 F7800.000
G1 X83.698 Y57.264
G1 X84.251 Y56.711 F3600.000 E40.44105
G1 X85.178 Y56.711 E40.51183
G1 X83.698 Y58.190 E40.67166
G1 X83.698 Y59.117 E40.74243
G1 X86.104 Y56.711 E41.00235
G1 X87.031 Y56.711 E41.07313
G1 X83.698 Y60.043 E41.43314
G1 X83.698 Y60.970 E41.50392
G1 X87.957 Y56.711 E41.96402
G1 X88.884 Y56.711 E42.03480
G1 X83.698 Y61.896 E42.59499
G1 X83.698 Y62.823 E42.66577
G1 X89.810 Y56.711 E43.32606
G1 X90.737 Y56.711 E43.39683
G1 X83.698 Y63.749 E44.15721
G1 X83.698 Y64.676 E44.22799
G1 X91.663 Y56.711 E45.08846
G1 X92.590 Y56.711 E45.15923
G1 X84.111 Y65.189 E46.07517
G1 X85.038 Y65.189 E46.14595
G1 X93.514 Y56.713 E47.06166
G1 X93.514 Y57.639 E47.13243
G1 X85.964 Y65.189 E47.94805
G1 X86.891 Y65.189 E48.01883
G1 X93.514 Y58.566 E48.73436
G1 X93.514 Y59.492 E48.80513
G1 X87.817 Y65.189 E49.42057
G1 X88.461 Y65.473 E49.47426
G1 X93.514 Y60.419 E50.02020
G1 X93.514 Y61.345 E50.09098
G1 X88.461 Y66.399 E50.63692
G1 X88.461 Y67.326 E50.70770
G1 X93.514 Y62.272 E51.25364
G1 X93.514 Y63.198 E51.32442
G1 X88.461 Y68.252 E51.87036
G1 X88.461 Y69.179 E51.94113
G1 X93.514 Y64.125 E52.48708
G1 X93.514 Y65.052 E52.55785
G1 X88.461 Y70.105 E53.10380
G1 X88.461 Y71.032 E53.17457
G1 X93.514 Y65.978 E53.72051
G1 X93.514 Y66.905 E53.79129
G1 X88.461 Y71.958 E54.33723
G1 X88.461 Y72.885 E54.40801
G1 X93.514 Y67.831 E54.95395
G1 X93.514 Y68.758 E55.02473
G1 X88.461 Y73.811 E55.57067
G1 X88.461 Y74.738 E55.64145
G1 X93.514 Y69.684 E56.18739
G1 X93.514 Y70.611 E56.25816
G1 X88.461 Y75.664 E56.80411
G1 X88.461 Y76.591 E56.87488
G1 X93.514 Y71.537 E57.42083
G1 X93.514 Y72.464 E57.49160
G1 X88.461 Y77.518 E58.03755
G1 X88.461 Y78.444 E58.10832
G1 X93.514 Y73.390 E58.65426
G1 X93.514 Y74.317 E58.72504
G1 X88.461 Y79.371 E59.27098
G1 X88.461 Y80.297 E59.34176
G1 X93.514 Y75.243 E59.88770
G1 X93.514 Y76.170 E59.95848
G1 X88.461 Y81.224 E60.50442
G1 X88.461 Y82.150 E60.57520
G1 X93.514 Y77.097 E61.12114
G1 X93.514 Y78.023 E61.19191
G1 X88.461 Y83.077 E61.73786
G1 X88.461 Y84.003 E61.80863
G1 X93.514 Y78.950 E62.35458
G1 X93.514 Y79.876 E62.42535
G1 X88.461 Y84.930 E62.97130
G1 X88.461 Y85.856 E63.04207
G1 X93.514 Y80.803 E63.58801
G1 X93.514 Y81.729 E63.65879
G1 X88.461 Y86.783 E64.20473
G1 X88.461 Y87.709 E64.27551
G1 X93.514 Y82.656 E64.82145
G1 X93.514 Y83.582 E64.89223
G1 X88.461 Y88.636 E65.43817
G1 X88.461 Y89.563 E65.50895
G1 X93.514 Y84.509 E66.05489
G1 X93.514 Y85.435 E66.12567
G1 X88.461 Y90.489 E66.67161
