; generated by Slic3r 0.9.10b on 2014-02-09 at 00:34:50

; layer_height = 0.3
; perimeters = 3
; top_solid_layers = 3
; bottom_solid_layers = 3
; fill_density = 0.4
; perimeter_speed = 30
; infill_speed = 60
; travel_speed = 130
; nozzle_diameter = 0.5
; filament_diameter = 1.83
; extrusion_multiplier = 1
; perimeters extrusion width = 0.70mm
; infill extrusion width = 0.70mm
; solid infill extrusion width = 0.70mm
; top infill extrusion width = 0.70mm
; first layer extrusion width = 0.59mm

G21 ; set units to millimeters
M107
M190 S100 ; wait for bed temperature to be reached
M104 S230 ; set temperature
G28 ; home all axes
G1 Z5 F5000 ; lift nozzle
M109 S230 ; wait for temperature to be reached
G90 ; use absolute coordinates
G92 E0
M82 ; use absolute distances for extrusion
G1 F1800.000 E-1.00000
G92 E0
G1 Z0.150 F7800.000
G1 X57.300 Y68.974
G1 F1800.000 E1.00000
G1 X58.430 Y68.374 F540.000 E1.09783
G1 X59.670 Y67.994 E1.19699
G1 X60.950 Y67.874 E1.29530
G1 X99.050 Y67.874 E4.20854
G1 X100.330 Y67.994 E4.30684
G1 X101.570 Y68.374 E4.40600
G1 X102.700 Y68.974 E4.50383
G1 X103.700 Y69.794 E4.60271
G1 X104.520 Y70.794 E4.70160
G1 X105.120 Y71.924 E4.79943
G1 X105.500 Y73.164 E4.89859
G1 X105.620 Y74.444 E4.99689
G1 X105.620 Y85.554 E5.84640
G1 X105.500 Y86.834 E5.94470
G1 X105.120 Y88.074 E6.04387
G1 X104.520 Y89.204 E6.14169
G1 X103.700 Y90.204 E6.24058
G1 X102.700 Y91.024 E6.33946
G1 X101.570 Y91.624 E6.43729
G1 X100.330 Y92.004 E6.53645
G1 X99.050 Y92.124 E6.63476
G1 X60.950 Y92.124 E9.54800
G1 X59.670 Y92.004 E9.64630
G1 X58.430 Y91.624 E9.74546
G1 X57.300 Y91.024 E9.84329
G1 X56.300 Y90.204 E9.94217
G1 X55.480 Y89.204 E10.04106
G1 X54.880 Y88.074 E10.13888
G1 X54.500 Y86.834 E10.23805
G1 X54.380 Y85.554 E10.33635
G1 X54.380 Y74.444 E11.18586
G1 X54.500 Y73.164 E11.28416
G1 X54.880 Y71.924 E11.38332
G1 X55.480 Y70.794 E11.48115
G1 X56.300 Y69.794 E11.58004
G1 X57.233 Y69.028 E11.67233
G1 F1800.000 E10.67233
G92 E0
G1 X68.586 Y78.111 F7800.000
G1 F1800.000 E1.00000
G1 X69.139 Y77.687 F540.000 E1.05332
G1 X69.784 Y77.420 E1.10663
G1 X70.475 Y77.329 E1.15995
G1 X71.166 Y77.420 E1.21326
G1 X71.744 Y77.659 E1.26107
G1 X71.811 Y77.687 E1.26658
G1 X72.364 Y78.111 E1.31990
G1 X72.788 Y78.664 E1.37321
G1 X72.816 Y78.731 E1.37872
G1 X73.055 Y79.309 E1.42653
G1 X73.146 Y80.000 E1.47985
G1 X73.055 Y80.691 E1.53316
G1 X73.027 Y80.758 E1.53867
G1 X72.788 Y81.336 E1.58648
G1 X72.364 Y81.889 E1.63979
G1 X71.811 Y82.313 E1.69311
G1 X71.166 Y82.580 E1.74643
G1 X70.475 Y82.671 E1.79974
G1 X69.784 Y82.580 E1.85306
G1 X69.206 Y82.341 E1.90086
G1 X69.139 Y82.313 E1.90637
G1 X68.586 Y81.889 E1.95969
G1 X68.162 Y81.336 E2.01301
G1 X68.134 Y81.269 E2.01852
G1 X67.895 Y80.691 E2.06632
G1 X67.804 Y80.000 E2.11964
G1 X67.895 Y79.309 E2.17295
G1 X68.162 Y78.664 E2.22627
G1 X68.534 Y78.180 E2.27300
G1 X69.134 Y78.284 F7800.000
G1 F1800.000 E1.27300
G92 E0
G1 X77.420 Y79.309 F7800.000
G1 F1800.000 E1.00000
G1 X77.687 Y78.664 F540.000 E1.05332
G1 X78.111 Y78.111 E1.10663
G1 X78.664 Y77.687 E1.15995
G1 X79.309 Y77.420 E1.21326
G1 X79.929 Y77.338 E1.26107
G1 X80.000 Y77.329 E1.26658
G1 X80.691 Y77.420 E1.31990
G1 X81.336 Y77.687 E1.37321
G1 X81.889 Y78.111 E1.42653
G1 X82.313 Y78.664 E1.47984
G1 X82.580 Y79.309 E1.53316
G1 X82.589 Y79.380 E1.53867
G1 X82.671 Y80.000 E1.58648
G1 X82.580 Y80.691 E1.63979
G1 X82.313 Y81.336 E1.69311
G1 X81.889 Y81.889 E1.74643
G1 X81.336 Y82.313 E1.79974
G1 X80.691 Y82.580 E1.85306
G1 X80.071 Y82.662 E1.90086
G1 X80.000 Y82.671 E1.90637
G1 X79.309 Y82.580 E1.95969
G1 X78.664 Y82.313 E2.01301
G1 X78.168 Y81.933 E2.06081
G1 X78.111 Y81.889 E2.06632
G1 X77.687 Y81.336 E2.11964
G1 X77.420 Y80.691 E2.17295
G1 X77.329 Y80.000 E2.22627
G1 X77.409 Y79.394 E2.27300
G1 X77.981 Y79.184 F7800.000
G1 F1800.000 E1.27300
G92 E0
G1 X67.632 Y77.468 F7800.000
G1 F1800.000 E1.00000
G1 X67.158 Y78.085 F540.000 E1.05948
G1 X66.775 Y79.009 E1.13593
G1 X66.645 Y80.000 E1.21239
G1 X66.775 Y80.991 E1.28884
G1 X67.158 Y81.915 E1.36529
G1 X67.632 Y82.532 E1.42477
G1 X62.387 Y82.532 E1.82582
G1 X62.387 Y77.468 E2.21306
G1 X67.545 Y77.468 E2.60752
G1 X68.176 Y77.701 F7800.000
G1 X67.660 Y78.375 F540.000 E2.67240
G1 X67.335 Y79.159 E2.73729
G1 X67.224 Y80.000 E2.80217
G1 X67.335 Y80.841 E2.86706
G1 X67.660 Y81.625 E2.93194
G1 X68.176 Y82.299 E2.99682
G1 X69.048 Y82.968 E3.08086
G1 X69.001 Y83.107 E3.09211
G1 X63.263 Y83.107 E3.53086
G1 X63.263 Y84.694 E3.65224
G1 X61.812 Y84.694 E3.76320
G1 X61.812 Y75.306 E4.48109
G1 X63.263 Y75.306 E4.59205
G1 X63.263 Y76.893 E4.71343
G1 X69.001 Y76.893 E5.15218
G1 X69.048 Y77.032 E5.16342
G1 X68.245 Y77.649 E5.24087
G1 X73.318 Y77.468 F7800.000
G1 X77.156 Y77.468 F540.000 E5.53434
G1 X76.683 Y78.085 E5.59381
G1 X76.300 Y79.009 E5.67027
G1 X76.170 Y80.000 E5.74672
G1 X76.300 Y80.991 E5.82317
G1 X76.683 Y81.915 E5.89963
G1 X77.157 Y82.532 E5.95911
G1 X73.318 Y82.532 E6.25257
G1 X73.792 Y81.915 E6.31205
G1 X74.175 Y80.991 E6.38851
G1 X74.305 Y80.000 E6.46496
G1 X74.175 Y79.009 E6.54141
G1 X73.792 Y78.085 E6.61787
G1 X73.371 Y77.536 E6.67075
G1 X72.863 Y77.819 F7800.000
G1 X72.774 Y77.701 F540.000 E6.68205
G1 X71.902 Y77.032 E6.76609
G1 X71.949 Y76.893 E6.77733
G1 X78.526 Y76.893 E7.28025
G1 X78.573 Y77.032 E7.29149
G1 X77.701 Y77.701 E7.37553
G1 X77.185 Y78.375 E7.44041
G1 X76.860 Y79.159 E7.50530
G1 X76.749 Y80.000 E7.57018
G1 X76.860 Y80.841 E7.63507
G1 X77.185 Y81.625 E7.69995
G1 X77.701 Y82.299 E7.76484
G1 X78.573 Y82.968 E7.84888
G1 X78.526 Y83.107 E7.86012
G1 X71.949 Y83.107 E8.36304
G1 X71.902 Y82.968 E8.37428
G1 X72.774 Y82.299 E8.45832
G1 X73.290 Y81.625 E8.52320
G1 X73.615 Y80.841 E8.58809
G1 X73.726 Y80.000 E8.65297
G1 X73.615 Y79.159 E8.71786
G1 X73.290 Y78.375 E8.78274
G1 X72.916 Y77.887 E8.82974
G1 X82.843 Y77.468 F7800.000
G1 X97.613 Y77.468 F540.000 E9.95910
G1 X97.613 Y82.532 E10.34634
G1 X82.843 Y82.532 E11.47570
G1 X83.317 Y81.915 E11.53518
G1 X83.700 Y80.991 E11.61163
G1 X83.830 Y80.000 E11.68808
G1 X83.700 Y79.009 E11.76454
G1 X83.317 Y78.085 E11.84099
G1 X82.896 Y77.536 E11.89388
G1 X82.388 Y77.819 F7800.000
G1 X82.299 Y77.701 F540.000 E11.90517
G1 X81.427 Y77.032 E11.98921
G1 X81.474 Y76.893 E12.00045
G1 X96.737 Y76.893 E13.16751
G1 X96.737 Y75.306 E13.28890
G1 X98.188 Y75.306 E13.39986
G1 X98.188 Y84.694 E14.11774
G1 X96.737 Y84.694 E14.22870
G1 X96.737 Y83.107 E14.35009
G1 X81.474 Y83.107 E15.51715
G1 X81.427 Y82.968 E15.52839
G1 X82.299 Y82.299 E15.61243
G1 X82.815 Y81.625 E15.67731
G1 X83.140 Y80.841 E15.74220
G1 X83.251 Y80.000 E15.80708
G1 X83.140 Y79.159 E15.87197
G1 X82.815 Y78.375 E15.93685
G1 X82.441 Y77.887 E15.98385
G1 X96.162 Y76.319 F7800.000
G1 X96.162 Y74.731 F378.000 E16.10524
G1 X98.763 Y74.731 E16.30407
G1 X98.763 Y85.269 E17.10983
G1 X96.162 Y85.269 E17.30866
G1 X96.162 Y83.681 E17.43005
G1 X63.838 Y83.681 E19.90168
G1 X63.838 Y85.269 E20.02307
G1 X61.237 Y85.269 E20.22190
G1 X61.237 Y74.731 E21.02766
G1 X63.838 Y74.731 E21.22649
G1 X63.838 Y76.319 E21.34788
G1 X96.076 Y76.319 E23.81292
G1 X96.737 Y76.319 F7800.000
G1 X97.197 Y78.098
G1 X96.984 Y77.884 F1080.000 E23.83617
G1 X96.165 Y77.884 E23.89925
G1 X97.197 Y78.916 E24.01171
G1 X97.197 Y79.735 E24.07479
G1 X95.346 Y77.884 E24.27647
G1 X94.527 Y77.884 E24.33955
G1 X97.197 Y80.554 E24.63043
G1 X97.197 Y81.373 E24.69351
G1 X93.708 Y77.884 E25.07360
G1 X92.890 Y77.884 E25.13669
G1 X97.121 Y82.116 E25.59773
G1 X96.302 Y82.116 E25.66081
G1 X92.071 Y77.884 E26.12185
G1 X91.252 Y77.884 E26.18494
G1 X95.484 Y82.116 E26.64598
G1 X94.665 Y82.116 E26.70906
G1 X90.433 Y77.884 E27.17010
G1 X89.615 Y77.884 E27.23319
G1 X93.846 Y82.116 E27.69423
G1 X93.027 Y82.116 E27.75731
G1 X88.796 Y77.884 E28.21835
G1 X87.977 Y77.884 E28.28143
G1 X92.208 Y82.116 E28.74248
G1 X91.390 Y82.116 E28.80556
G1 X87.158 Y77.884 E29.26660
G1 X86.339 Y77.884 E29.32968
G1 X90.571 Y82.116 E29.79073
G1 X89.752 Y82.116 E29.85381
G1 X85.521 Y77.884 E30.31485
G1 X84.702 Y77.884 E30.37793
G1 X88.933 Y82.116 E30.83898
G1 X88.114 Y82.116 E30.90206
G1 X83.883 Y77.884 E31.36310
G1 X84.109 Y78.929 E31.44548
G1 X87.296 Y82.116 E31.79266
G1 X86.477 Y82.116 E31.85574
G1 X84.233 Y79.872 E32.10018
G1 X84.168 Y80.626 E32.15843
G1 X85.658 Y82.116 E32.32080
G1 X84.839 Y82.116 E32.38388
G1 X84.023 Y81.299 E32.47284
G1 X83.783 Y81.878 E32.52112
G1 X84.021 Y82.116 E32.54699
G1 X79.071 Y83.275 F7800.000
G1 X78.942 Y83.146 F360.000 E32.55415
G1 X79.178 Y82.966 E32.56579
G1 X79.488 Y83.275 E32.58293
G1 X79.666 Y83.037 E32.59459
G1 X79.904 Y83.275 E32.60779
G1 X80.112 Y83.066 E32.61933
G1 X80.321 Y83.275 E32.63092
G1 X80.480 Y83.018 E32.64277
G1 X80.738 Y83.275 E32.65704
G1 X80.838 Y82.959 E32.67004
G1 X81.075 Y83.195 E32.68314
G1 X76.078 Y81.542 F7800.000
G1 X74.703 Y80.167 F1080.000 E32.83177
G1 X74.608 Y80.891 F7800.000
G1 X75.833 Y82.116 F1080.000 E32.96420
G1 X75.014 Y82.116 F7800.000
G1 X74.410 Y81.512 F1080.000 E33.02951
G1 X74.170 Y82.091 F7800.000
G1 X74.195 Y82.116 F1080.000 E33.03221
G1 X75.810 Y80.455 F7800.000
G1 X74.630 Y79.275 F1080.000 E33.15980
G1 X75.799 Y79.626 F7800.000
G1 X74.232 Y78.059 F1080.000 E33.32925
G1 X74.876 Y77.884 F7800.000
G1 X75.894 Y78.902 F1080.000 E33.43933
G1 X76.134 Y78.323 F7800.000
G1 X75.695 Y77.884 F1080.000 E33.48675
G1 F1800.000 E32.48675
G92 E0
G1 X69.486 Y83.275 F7800.000
G1 F1800.000 E1.00000
G1 X69.402 Y83.191 F360.000 E1.00467
G1 X69.550 Y82.923 E1.01669
G1 X69.903 Y83.275 E1.03622
G1 X70.072 Y83.028 E1.04798
G1 X70.319 Y83.275 E1.06171
G1 X70.534 Y83.073 E1.07327
G1 X70.736 Y83.275 E1.08449
G1 X70.902 Y83.025 E1.09628
G1 X71.153 Y83.275 E1.11018
G1 X71.270 Y82.976 E1.12279
G1 X71.570 Y83.275 E1.13938
G1 X66.765 Y82.055 F7800.000
G1 X62.803 Y78.093 F1080.000 E1.56782
G1 X63.413 Y77.884 F7800.000
G1 X66.330 Y80.801 F1080.000 E1.88325
G1 X66.239 Y79.891 F7800.000
G1 X64.232 Y77.884 F1080.000 E2.10027
G1 X65.051 Y77.884 F7800.000
G1 X66.334 Y79.168 F1080.000 E2.23906
G1 X66.521 Y78.535 F7800.000
G1 X65.870 Y77.884 F1080.000 E2.30946
G1 X66.688 Y77.884 F7800.000
G1 X66.760 Y77.956 F1080.000 E2.31725
G1 X62.803 Y78.912 F7800.000
G1 X66.007 Y82.116 F1080.000 E2.66373
G1 X65.188 Y82.116 F7800.000
G1 X62.803 Y79.730 F1080.000 E2.92167
G1 X62.803 Y80.549 F7800.000
G1 X64.370 Y82.116 F1080.000 E3.09108
G1 X63.551 Y82.116 F7800.000
G1 X62.803 Y81.368 F1080.000 E3.17194
G1 X62.678 Y83.700 F7800.000
G1 X62.397 Y83.418 F360.000 E3.20264
G1 X62.412 Y76.883 F7800.000
G1 X62.397 Y76.868 F360.000 E3.20431
G1 X62.678 Y76.331 F7800.000
G1 X62.397 Y76.049 F360.000 E3.23478
G1 X69.542 Y77.080 F7800.000
G1 X69.469 Y77.007 F360.000 E3.23884
G1 X69.603 Y76.725 E3.25108
G1 X69.877 Y76.998 E3.26621
G1 X70.020 Y76.725 E3.27830
G1 X70.245 Y76.950 E3.29074
G1 X70.437 Y76.725 E3.30232
G1 X70.655 Y76.943 E3.31440
G1 X70.854 Y76.725 E3.32595
G1 X71.135 Y77.006 E3.34153
G1 X71.270 Y76.725 E3.35375
G1 X71.499 Y76.954 E3.36643
G1 X79.110 Y77.063 F7800.000
G1 X78.963 Y76.916 F360.000 E3.37457
G1 X79.189 Y76.725 E3.38615
G1 X79.455 Y76.991 E3.40089
G1 X79.605 Y76.725 E3.41287
G1 X79.823 Y76.943 E3.42492
G1 X80.022 Y76.725 E3.43647
G1 X80.249 Y76.952 E3.44906
G1 X80.439 Y76.725 E3.46064
G1 X80.729 Y77.015 E3.47673
G1 X80.856 Y76.725 E3.48913
G1 X81.040 Y76.909 E3.49932
G1 X97.603 Y76.866 F7800.000
G1 X97.322 Y76.585 F360.000 E3.52979
G1 X97.603 Y76.048 F7800.000
G1 X97.446 Y75.890 F360.000 E3.54680
G1 X97.603 Y83.417 F7800.000
G1 X97.322 Y83.135 F360.000 E3.57726
G1 X97.477 Y84.110 F7800.000
G1 X97.322 Y83.954 F360.000 E3.59411
M106 S255
G1 F1800.000 E2.59411
G92 E0
G1 Z0.450 F7800.000
G1 X82.619 Y80.702
G1 F1800.000 E1.00000
G1 X82.348 Y81.356 F843.996 E1.05284
G1 X82.262 Y81.468 E1.06336
G1 X81.917 Y81.917 E1.10568
G1 X81.356 Y82.348 E1.15851
G1 X80.702 Y82.619 E1.21135
G1 X80.000 Y82.711 E1.26419
G1 X79.298 Y82.619 E1.31703
G1 X78.644 Y82.348 E1.36987
G1 X78.083 Y81.917 E1.42270
G1 X77.652 Y81.356 E1.47554
G1 X77.381 Y80.702 E1.52838
G1 X77.289 Y80.000 E1.58122
G1 X77.381 Y79.298 E1.63406
G1 X77.652 Y78.644 E1.68689
G1 X78.083 Y78.083 E1.73973
G1 X78.644 Y77.652 E1.79257
G1 X79.298 Y77.381 E1.84541
G1 X79.860 Y77.307 E1.88772
G1 X80.000 Y77.289 E1.89825
G1 X80.702 Y77.381 E1.95108
G1 X81.356 Y77.652 E2.00392
G1 X81.917 Y78.083 E2.05676
G1 X82.348 Y78.644 E2.10960
G1 X82.619 Y79.298 E2.16244
G1 X82.711 Y80.000 E2.21527
G1 X82.632 Y80.604 E2.26078
G1 X81.980 Y80.843 F7800.000
G1 F1800.000 E1.26078
G92 E0
G1 X73.186 Y80.000 F7800.000
G1 F1800.000 E1.00000
G1 X73.094 Y80.702 F843.996 E1.05284
G1 X72.823 Y81.356 E1.10568
G1 X72.392 Y81.917 E1.15851
G1 X71.831 Y82.348 E1.21135
G1 X71.177 Y82.619 E1.26419
G1 X70.475 Y82.711 E1.31703
G1 X69.773 Y82.619 E1.36987
G1 X69.119 Y82.348 E1.42270
G1 X68.558 Y81.917 E1.47554
G1 X68.127 Y81.356 E1.52838
G1 X67.856 Y80.702 E1.58122
G1 X67.764 Y80.000 E1.63406
G1 X67.856 Y79.298 E1.68689
G1 X68.127 Y78.644 E1.73973
G1 X68.558 Y78.083 E1.79257
G1 X69.119 Y77.652 E1.84541
G1 X69.643 Y77.435 E1.88772
G1 X69.773 Y77.381 E1.89825
G1 X70.475 Y77.289 E1.95108
G1 X71.177 Y77.381 E2.00392
G1 X71.700 Y77.598 E2.04624
G1 X71.831 Y77.652 E2.05676
G1 X72.392 Y78.083 E2.10960
G1 X72.823 Y78.644 E2.16244
G1 X73.094 Y79.298 E2.21528
G1 X73.174 Y79.903 E2.26078
G1 X72.606 Y80.302 F7800.000
G1 F1800.000 E1.26078
G92 E0
G1 X67.115 Y82.333 F7800.000
G1 F1800.000 E1.00000
G1 X62.586 Y82.333 F843.996 E1.33806
G1 X62.586 Y77.667 E1.68630
G1 X67.115 Y77.667 E2.02436
G1 X66.581 Y78.957 E2.12852
G1 X66.443 Y80.000 E2.20708
G1 X66.581 Y81.043 E2.28565
G1 X67.077 Y82.242 E2.38248
G1 X67.555 Y81.686 F7800.000
G1 X68.091 Y82.384 F843.996 E2.44818
G1 X68.670 Y82.828 E2.50268
G1 X68.616 Y82.987 E2.51519
G1 X63.143 Y82.987 E2.92376
G1 X63.143 Y84.575 E3.04227
G1 X61.932 Y84.575 E3.13271
G1 X61.932 Y75.425 E3.81569
G1 X63.143 Y75.425 E3.90613
G1 X63.143 Y77.013 E4.02464
G1 X68.616 Y77.013 E4.43322
G1 X68.670 Y77.172 E4.44572
G1 X68.091 Y77.616 E4.50022
G1 X67.555 Y78.314 E4.56592
G1 X67.218 Y79.127 E4.63162
G1 X67.104 Y80.000 E4.69733
G1 X67.218 Y80.873 E4.76303
G1 X67.518 Y81.595 E4.82140
G1 F1800.000 E3.82140
G92 E0
G1 X73.835 Y82.333 F7800.000
G1 F1800.000 E1.00000
G1 X74.369 Y81.043 F843.996 E1.10416
G1 X74.507 Y80.000 E1.18273
G1 X74.369 Y78.957 E1.26129
G1 X73.835 Y77.667 E1.36545
G1 X76.640 Y77.667 E1.57480
G1 X76.106 Y78.957 E1.67896
G1 X75.968 Y80.000 E1.75753
G1 X76.106 Y81.043 E1.83610
G1 X76.640 Y82.333 E1.94025
G1 X73.933 Y82.333 E2.14228
G1 X73.257 Y81.866 F7800.000
G1 X73.395 Y81.686 F843.996 E2.15923
G1 X73.732 Y80.873 E2.22494
G1 X73.846 Y80.000 E2.29064
G1 X73.732 Y79.127 E2.35634
G1 X73.395 Y78.314 E2.42205
G1 X72.859 Y77.616 E2.48775
G1 X72.280 Y77.172 E2.54225
G1 X72.334 Y77.013 E2.55475
G1 X78.141 Y77.013 E2.98830
G1 X78.195 Y77.172 E3.00080
G1 X77.616 Y77.616 E3.05530
G1 X77.080 Y78.314 E3.12100
G1 X76.743 Y79.127 E3.18671
G1 X76.629 Y80.000 E3.25241
G1 X76.743 Y80.873 E3.31811
G1 X77.080 Y81.686 E3.38382
G1 X77.616 Y82.384 E3.44952
G1 X78.195 Y82.828 E3.50402
G1 X78.141 Y82.987 E3.51652
G1 X72.334 Y82.987 E3.95007
G1 X72.280 Y82.828 E3.96258
G1 X72.859 Y82.384 E4.01707
G1 X73.197 Y81.944 E4.05849
G1 F1800.000 E3.05849
G92 E0
G1 X83.360 Y82.333 F7800.000
G1 F1800.000 E1.00000
G1 X83.894 Y81.043 F843.996 E1.10416
G1 X84.032 Y80.000 E1.18273
G1 X83.894 Y78.957 E1.26129
G1 X83.360 Y77.667 E1.36545
G1 X97.414 Y77.667 E2.41456
G1 X97.414 Y82.333 E2.76281
G1 X83.458 Y82.333 E3.80459
G1 X82.781 Y81.866 F7800.000
G1 X82.920 Y81.686 F843.996 E3.82155
G1 X83.257 Y80.873 E3.88725
G1 X83.371 Y80.000 E3.95295
G1 X83.257 Y79.127 E4.01866
G1 X82.920 Y78.314 E4.08436
G1 X82.384 Y77.616 E4.15006
